!!!!SEGMENT: pl-sa--279-a-vii-39--005_rathgeber-johann-valentin--vesperae-lauda-jerusalem.krn
!!!cenid: 17xx:626
!!!COM: Rathgeber, Johann Valentin
!!!COM-rismID: pe30002639
!!!CDT: 1682/04/03-1750/06/02
!!!CNT: German
!!!OPR: Vesperae
!!!OTL: Lauda Jerusalem
!!!OMV: 005
!!!PDT: 1731
!!!AGN: Sacred; Vespers
!!!SMS-siglum: PL-SA
!!!SMS-shelfmark: 279/A VII 39
!!!SMS-shelfwork: 001-005 M
!!!SMS-variant:
!!!SMS-altvar:
!!!NIFC-rismSourceID: 1001077278
!!!NIFC-rismChildID: 1001077278
!!!NIFC-islandoraID: none
!!!URL-pdf-islandora:
!!!URL-scan: https://bc.bdsandomierz.pl/dlibra/publication/1762/edition/1730/content @EN{Scan in the Sandomierz Diocese Digital Library} @PL{Skany w portalu Cyfrowa Biblioteka Diecezjalna w Sandomierzu}
!!!ONB-nifc: UWAGA: części Vesperae: Dixit Dominus, Laudate Pueri, Laetatus sum, Nisi Dominus, Lauda Jerusalem, Magnificat
!!!AIN: 1 alto 1 empty 1 organ 1 tenor 2 violn 1 vox
!!!key:
**kern	**fb	**kern	**kern	**kern	**text	**kern	**text	**kern	**text	**kern	**text
*part7	*	*part6	*part5	*part4	*part4	*part3	*part3	*part2	*part2	*part1	*part1
*group	*	*group2	*group2	*group1	*group1	*group1	*group1	*group1	*group1	*group1	*group1
*staff7	*	*staff6	*staff5	*staff4	*staff4	*staff3	*staff3	*staff2	*staff2	*staff1	*staff1
*Iorgan	*	*Ivioln	*Ivioln	*Iempty	*	*Itenor	*	*Ialto	*	*Ivox	*
*I"Baſso Pro Organo	*	*I"Violino Uniſono	*I"Violino Uniſono	*I"Baſso	*	*I"Tenore	*	*I"Alto	*	*I"Canto	*
*I'Org.	*	*I'Vl. Uniſ.	*I'Vl. Uniſ.	*I'B.	*	*I'T.	*	*I'A.	*	*I'C.	*
*clefF4	*	*clefG2	*clefG2	*clefF4	*	*clefC4	*	*clefC3	*	*clefC1	*
*k[]	*	*k[]	*k[]	*k[]	*	*k[]	*	*k[]	*	*k[]	*
*C:	*	*C:	*C:	*C:	*	*C:	*	*C:	*	*C:	*
*M2/4	*	*M2/4	*M2/4	*M2/4	*	*M2/4	*	*M2/4	*	*M2/4	*
=1	=1	=1	=1	=1	=1	=1	=1	=1	=1	=1	=1
*	*above	*	*	*	*	*	*	*	*	*	*
!LO:TX:i:b:t=Lauda Jeruſalem	!	!LO:TX:i:b:t=Lauda Jeruſalem	!LO:TX:i:b:t=Lauda Jeruſalem	!	!	!	!	!	!	!	!
8c\L	.	8gg\L	8gg\L	8c\	Lau-	8c\	Lau-	8g\	Lau-	8ee\	Lau-
8G\J	.	8gg\	8gg\	8G\	-da	8B\	-da	8g\	-da	8dd\	-da
8r	.	8gg\	8gg\	8r	.	8r	.	8r	.	8r	.
8E\	.	8gg\J	8gg\J	8E\	Je-	8c\	Je-	8g\	Je-	8cc\	Je-
=2	=2	=2	=2	=2	=2	=2	=2	=2	=2	=2	=2
8F\L	.	16aa\LL	16aa\LL	8F\	-ru-	8c\	-ru-	8a\	-ru-	8cc\	-ru-
.	.	16ff\	16ff\	.	.	.	.	.	.	.	.
8E\J	X 6	16gg\	16gg\	16E\	-ſa-	16c\	-ſa-	16g\	-ſa-	16dd\	-ſa-
.	.	16ee\JJ	16ee\JJ	16E\	-lem	16c\	-lem	16g,\	-lem	16ee,\	-le(m)
!LO:TX:a:t=P:problem=mixed beam	!	!	!	!	!	!	!	!	!	!	!
8D\L	.	16ff\LL	16ff\LL	8D/	Do-	8c\	Do-	8f\	Do-	8ff\	Do-
.	.	16dd\	16dd\	.	.	.	.	.	.	.	.
8GG/J	X 6	16gg\	16gg\	8GG/	-mi-	8B\	-mi-	8g\	-mi-	(>16ee\LL	-mi-
.	.	16ff\JJ	16ff\JJ	.	.	.	.	.	.	16dd\JJ)	.
=3	=3	=3	=3	=3	=3	=3	=3	=3	=3	=3	=3
4C/	.	8ee\L	8ee\L	8C/	-nu(m)	8c\	-num	8g\	-num	8ee\,	-num
.	.	16cc\L	16cc\L	8r	.	8r	.	8r	.	16cc\LL	Lau-
.	.	16b\JJ	16b\JJ	.	.	.	.	.	.	16b-\JJ	.
8r	.	8a/L	8a/L	8r	.	8r	.	8r	.	8a\	-da
8E\	X 6	8g/J	8g/J	(>8E\	Lau-	[>8c\	Lau-	(>8g\	Lau-	8g/	.
!	!	!	!LO:LB:g=original	!	!	!	!	!	!	!	!
=4	=4	=4	=4	=4	=4	=4	=4	=4	=4	=4	=4
8F\L	.	8r	8r	8F\)	.	8c\]	.	8a\)	-da	8r	.
*	*	*	*	*	*	*	*	*	*	*	*ij
8D\J	.	16dd\LL	16dd\LL	8C/	-da	8c\	-da	8g\	.	16cc\LL	Lau-
.	.	16b-X\JJ	16b-X\JJ	.	.	.	.	.	.	16b-X\JJ	.
8r	.	8a/L	8a/L	8r	.	8r	.	8r	.	8a\	-da
*	*	*	*	*	*	*	*	*	*ij	*	*Xij
8E\	X 6	8f/J	8f/J	(>8E\	Lau-	[>8c\	lau-	(>8g\	Lau-	8g/	.
=5	=5	=5	=5	=5	=5	=5	=5	=5	=5	=5	=5
8F\L	.	8r	8r	8F\)	.	8c\]	.	8a\)	-da	8r	.
*	*	*	*	*	*	*	*	*	*Xij	*	*
8C\J	.	16gg\LL	16gg\LL	8C/	-da	8c\	-da	8g\	.	(>16gg\LL	Lau-
.	.	16ff\JJ	16ff\JJ	.	.	.	.	.	.	16ff\JJ	.
8r	.	8ee\L	8ee\L	8r	.	8r	.	8r	.	8ee\)	-da
8BB/	X 6	8dd\J	8dd\J	(>8BB/	Lau-	(>8d\	Lau-	8g\	Lau-	8dd\	.
!	!	!	!	!	!	!LO:LB:g=original	!	!LO:LB:g=original	!	!	!
=6	=6	=6	=6	=6	=6	=6	=6	=6	=6	=6	=6
8C/L	.	8r	8r	8C/)	.	8e\)	.	8g\	.	8r	.
8GG/J	.	16gg\LL	16gg\LL	8GG/	-da	8d\	-da	8g\	-da	16gg\LL	Lau-
.	.	16ff\JJ	16ff\JJ	.	.	.	.	.	.	16ff\JJ	.
8r	.	8ee\L	8ee\L	8r	.	8r	.	8r	.	8ee\	.
8BB/	X 6	8dd\J	8dd\J	(>8BB/	Lau-	(>8G/	Lau-	[>8g\	lau-	8dd\	-da
!	!	!	!	!LO:LB:g=original	!	!	!	!	!	!LO:LB:g=original	!
=7	=7	=7	=7	=7	=7	=7	=7	=7	=7	=7	=7
*	*	*	*	*	*	*	*	*	*	*	*ij
8C/L	.	8ee\L	8ee\L	8C/)	.	8c\)	.	8g\]	.	8ee\	Lau-
8GG/J	.	8gg\J	8gg\J	8GG,/	-da	8B\	-da	8g\	-da	8dd\	-da
*	*	*	*	*	*ij	*	*	*	*	*	*Xij
8c\L	.	4r	4r	8c\	Lau-	4r	.	4r	.	4r	.
8B\J	.	.	.	8B\	-da	.	.	.	.	.	.
*	*	*	*	*	*Xij	*	*	*	*	*	*
!	!	!LO:LB:g=original	!	!	!	!	!	!	!	!	!
=8	=8	=8	=8	=8	=8	=8	=8	=8	=8	=8	=8
!LO:TX:a:t=P:problem=mixed beam	!	!	!	!	!	!	!	!	!	!	!
8A\L	.	4r	4r	8A\	De-	4r	.	4r	.	4r	.
8AA/J	.	.	.	8AA,/	-um	.	.	.	.	.	.
8A\L	X 6	8ff\L	8ff\L	8A\	lau-	8c\	Lau-	8f\	lau-	8ff\	Lau-
8G\J	X 6	8ee\J	8ee\J	8G\	-da	8B\	-da	8g\	-da	8ee\	-da
=9	=9	=9	=9	=9	=9	=9	=9	=9	=9	=9	=9
8F\L	X 6	8dd\L	8dd\L	8F\	De-	8A\	De-	8a\	De-	8dd\	De-
8E\	X 6	8cc\	8cc\	8E\	-u(m)	8c\	-um	8g\	-um	8cc,\	-um
8D\	X 6	8b\	8b\	8D/	tu-	8d\	tu-	8f\	tu-	8b\	tu-
8C\J	.	8cc\J	8cc\J	8C/	-u(m)	8e\	-um	8e\	-um	8cc\	-um
=10	=10	=10	=10	=10	=10	=10	=10	=10	=10	=10	=10
!LO:TX:a:t=P:problem=mixed beam	!	!	!LO:TX:a:t=P:problem=mixed beam	!	!	!	!	!	!	!	!
8G\L	.	8dd\L	8dd\L	8G\	ſi-	8B\	ſi-	8d\	ſion	8dd\	ſi-
8GG/J	.	8g\J	8g/J	8GG/	-on	8B\	-on	8d\	.	8g,/	-on
4r	.	8r	8r	4r	.	4r	.	4r	.	8r	.
.	.	16gg\LL	16gg\LL	.	.	.	.	.	.	16gg\LL	Lau-
.	.	16ff\JJ	16ff\JJ	.	.	.	.	.	.	16ff\JJ	.
!LO:LB:g=original	!	!	!	!	!	!	!	!	!	!	!
=11	=11	=11	=11	=11	=11	=11	=11	=11	=11	=11	=11
8r	.	8ee\L	8ee\L	8r	.	8r	.	8r	.	8ee\	-da
8B\L	.	8dd\	8cc\	(>8B\L	Lau-	(>8G/	Lau-	4g\	Lau-	8dd,\	.
*	*	*	*	*	*	*	*	*	*	*	*ij
8c\	.	8ee\	8ee\	8c\)J	-da	8c\)	.	.	.	8ee\	Lau-
8G\J	.	8gg\J	8gg\J	8G\	.	8B\	-da	8g\	-da	8dd\	-da
*	*	*	*	*	*	*	*	*	*	*	*Xij
=12	=12	=12	=12	=12	=12	=12	=12	=12	=12	=12	=12
8A\L	.	8cc\L	8cc\L	8A\	De-	8c\	De-	8e\	De-	8cc\	De-
8E\	X 6	8cc\	8cc\	8E\	-um	8c\	-um	8g\	-u(m)	8cc,\	-um
8F\	.	8cc\	8cc\	8F\	tu-	8c\	tu-	8a\	tu-	8ff\	tu-
!	!	!	!	!	!	!LO:LB:g=original	!	!	!	!	!
8C\J	.	8cc\J	8cc\J	8C/	-um	8c\	-um	8g\	-um	8ee\	-u(m)
!	!	!	!	!	!	!	!	!LO:LB:g=original	!	!	!
=13	=13	=13	=13	=13	=13	=13	=13	=13	=13	=13	=13
*	*	*	*	*	*	*	*	*2\right	*	*2\right	*
!LO:TX:a:t=P:problem=mixed beam	!	!	!	!	!	!	!	!	!	!	!
8G/L	.	8cc\L	8cc\L	(>4G\	ſi-	(>4c\	ſi-	2g\	ſi-	2dd\	ſi-
8F/	X 4	16dd\L	16dd\L	.	.	.	.	.	.	.	.
.	.	16ee\JJ	16ee\JJ	.	.	.	.	.	.	.	.
!	!	!	!LO:LB:g=original	!	!	!	!	!	!	!	!
8G/	.	8g/L	8f/L	4GG/)	.	4B\)	.	.	.	.	.
.	X 3	.	.	.	.	.	.	.	.	.	.
8GG/J	.	8b/J	8a/J	.	.	.	.	.	.	.	.
=14	=14	=14	=14	=14	=14	=14	=14	=14	=14	=14	=14
!LO:TX:b:t=Viol	!	!	!LO:TX:a:t=P:problem=mixed beam	!	!	!	!	!	!	!	!
8C/L	.	8cc\L	8cc\L	8C/	-on	8c\	-on	8g\	-on	8cc\	-on
!	!	!LO:TX:a:t=e	!	!	!	!	!	!	!	!	!
8E/J	.	8e\	8e/	8r	.	8r	.	8r	.	8r	.
!	!	!LO:TX:a:t=f	!	!	!	!	!	!	!	!	!
8F\L	.	8f\	8f/	4r	.	4r	.	4r	.	4r	.
!	!	!LO:TX:a:t=g	!	!	!	!	!	!	!	!	!
8G\J	.	8g\J	8g/J	.	.	.	.	.	.	.	.
!	!	!	!	!	!	!	!	!	!	!LO:LB:g=original	!
=15	=15	=15	=15	=15	=15	=15	=15	=15	=15	=15	=15
!	!	!	!	!LO:N:vis=00	!	!	!	!	!	!LO:N:vis=00	!
8C/	.	8c/L	8c/L	0r	.	8c\	quo-	8e\	Quo-	0r	.
8r	.	8c/	8c/	.	.	16c\	-ni-	16e\	-ni-	.	.
.	.	.	.	.	.	16c\	-am	16e,\	-am	.	.
4r	.	8c/	8c/	.	.	8c\	Con-	8e\	Con-	.	.
.	.	8c/J	8c/J	.	.	8c\	-for-	8e\	-for-	.	.
=16	=16	=16	=16	=16	=16	=16	=16	=16	=16	=16	=16
!LO:N:vis=0	!	!	!	!	!	!	!	!	!	!	!
1r	.	8G/L	8G/L	.	.	16B\LL	-ta-	16d\LL	-ta-	.	.
.	.	.	.	.	.	16c\	.	16e\	.	.	.
.	.	8G/	8G/	.	.	16B\	.	16d\	.	.	.
.	.	.	.	.	.	16c\JJ	.	16e\JJ	.	.	.
.	.	8G/	8G/	.	.	16d\LL	.	16f\LL	.	.	.
.	.	.	.	.	.	16c\	.	16e\	.	.	.
.	.	8G/J	8G/J	.	.	16d\	.	16f\	.	.	.
.	.	.	.	.	.	16c\JJ	.	16e\JJ	.	.	.
=17	=17	=17	=17	=17	=17	=17	=17	=17	=17	=17	=17
.	.	8G/L	8G/L	.	.	16B\LL	.	16d\LL	.	.	.
.	.	.	.	.	.	16c\	.	16e\	.	.	.
.	.	8G/	8G/	.	.	16B\	.	16d\	.	.	.
.	.	.	.	.	.	16c\JJ	.	16e\JJ	.	.	.
.	.	8G/	8G/	.	.	16d\LL	.	16f\LL	.	.	.
.	.	.	.	.	.	16c\	.	16e\	.	.	.
.	.	8G/J	8G/J	.	.	16d\	.	16f\	.	.	.
.	.	.	.	.	.	16c\JJ	.	16e\JJ	.	.	.
!	!	!LO:LB:g=original	!	!	!	!	!	!	!	!	!
=18	=18	=18	=18	=18	=18	=18	=18	=18	=18	=18	=18
4r	.	8G/L	8G/L	.	.	8B\	.	8d\	.	.	.
.	.	8g/	8g/	.	.	8B,\	-vit	8d,\	-vit	.	.
8G\L	.	8f/	8f/	.	.	8B\	ſe-	8d\	ſe-	.	.
8F\J	.	8e/J	8e/J	.	.	16c\	-ras	16e\	-ras	.	.
.	.	.	.	.	.	16d\	por-	16f\	por-	.	.
!	!	!	!	!	!	!LO:LB:g=original	!	!	!	!	!
=19	=19	=19	=19	=19	=19	=19	=19	=19	=19	=19	=19
8E\L	.	8e/L	8e/L	2r	.	8e\	-ta-	8g\	-ta-	2r	.
8F\	.	8f/	8f/	.	.	16d\	-ru(m)	16f\	-ru(m)	.	.
.	.	.	.	.	.	16c\	tu-	16e\	tu-	.	.
!	!	!	!	!	!	!	!	!LO:LB:g=original	!	!	!
8G\	.	8g/	8g/	.	.	4B\	-a-	4d\	-a-	.	.
8E\J	.	8G/J	8G/J	.	.	.	.	.	.	.	.
=20	=20	=20	=20	=20-	=20	=20	=20	=20	=20	=20-	=20
!LO:TX:b:t=Tut	!	!	!	!	!	!	!	!	!	!	!
!LO:TX:a:t=P:problem=mixed beam	!	!LO:TX:a:t=P:problem=mixed beam	!LO:TX:a:t=P:problem=mixed beam	!	!	!	!	!	!	!	!
!	!	!	!	!LO:N:vis=16	!	!	!	!	!	!	!
8C/L	.	8c/L	8c/L	8r	.	8c,\	-rum	8e,\	-rum	8r	.
16c\L	.	8gg\	8gg\	16c\	Be-	16c\	be-	16g\	be-	16ee\	be-
16B\JJ	X 6	.	.	16B\	-ne-	16d\	-ne-	16g\	-ne-	16dd\	-ne-
8c\L	.	8gg\	8gg\	8c\	-di-	8c\	-di-	8g\	-di-	8ee\	-di-
8G\J	.	8gg\J	8gg\J	8G\	-xit	8B\	-xit	8g\	-xit	8dd\	-xit
=21	=21	=21	=21	=21	=21	=21	=21	=21	=21	=21	=21
8r	.	8gg\L	8gg\L	8r	.	8r	.	8r	.	8r	.
*	*	*	*	*	*	*	*	*	*ij	*	*
16c\LL	.	8gg\	8gg\	16c\	be-	16c\	be-	16g\	be-	16ee\	be-
16B\JJ	X 6	.	.	16B\	-ne-	16d\	-ne-	16g\	-ne-	16dd\	-ne-
8c\L	.	8gg\	8gg\	8c\	-di-	8c\	-di-	8g\	-di-	8ee\	-di-
8B\J	.	8gg\J	8gg\J	8B\	-xit	8d\	-xit	8g,\	-xit	8dd\	-xit
*	*	*	*	*	*	*	*	*	*Xij	*	*
=22	=22	=22	=22	=22	=22	=22	=22	=22	=22	=22	=22
8A\L	.	8ff#X\L	8ff#X\L	8A\	fi-	8A/	fi-	8f#X\	fi-	8cc\	fi-
8G\J	.	16gg\L	16gg\L	16G\	-li-	16d\	-li-	16g\	-li-	16b\	-li-
.	.	16aa\JJ	16aa\JJ	16G\	-is	16d,\	-is	16a\	-is	16b\	-is
!LO:TX:a:t=P:problem=mixed beam	!	!	!	!	!	!	!	!	!	!	!
8d\L	.	8dd\L	8dd\L	8D/	tu-	8d\	tu-	8f#X\	tu-	8a\	tu-
8D/J	.	8ff#X\J	8ff#X\J	16D,/	-is	16d\	-is	16f#\	is	16a\	-is
.	.	.	.	16D/	in	16d\	in-	16f#\	in	16a\	in
!LO:LB:g=original	!	!	!	!	!	!	!	!	!	!	!
=23	=23	=23	=23	=23	=23	=23	=23	=23	=23	=23	=23
!LO:TX:a:t=P:problem=mixed beam	!	!	!	!	!	!	!	!	!	!	!
!LO:TX:b:t=V V.	!	!LO:TX:a:t=P:problem=mixed beam	!	!	!	!	!	!	!	!	!
8G\L	.	8gg\L	8gg\	8G\	te	8d\	te	8g\	te	8b\	te
!	!	!	!LO:LB:g=original	!	!	!	!	!	!	!	!
8BB/	.	8B/	8B/L	8r	.	8r	.	8r	.	8r	.
8C/	.	8c/	8c/	4r	.	4r	.	4r	.	4r	.
8D/J	.	8d/J	8d/J	.	.	.	.	.	.	.	.
!	!	!	!	!LO:LB:g=original	!	!	!	!	!	!	!
=24	=24	=24	=24	=24	=24	=24	=24	=24	=24	=24	=24
!	!	!	!	!LO:N:vis=00	!	!	!	!	!	!LO:N:vis=00	!
8GG/	.	8G/L	8G/L	0r	.	8r	.	8r	.	0r	.
!	!	!	!	!	!	!LO:TX:a:i:t=Solo	!	!	!	!	!
8r	.	8g/	8g/	.	.	8B\	qui	8g\	quis	.	.
!	!	!	!	!	!	!LO:LB:g=original	!	!	!	!	!
4r	.	8g/	8g/	.	.	8B\	po-	8g\	po-	.	.
.	.	8g/J	8g/J	.	.	16B\	-su-	16g\	-su-	.	.
.	.	.	.	.	.	16B\	-it	16g\	-it	.	.
!	!	!	!	!	!	!	!	!LO:PB:g=original	!	!	!
=25	=25	=25	=25	=25	=25	=25	=25	=25	=25	=25	=25
2r	.	8d/L	8d/L	.	.	(>16A\LL	fi-	(>16f#X\LL	Fi-	.	.
.	.	.	.	.	.	16B\JJ)	.	16g\JJ)	.	.	.
.	.	8d/	8d/	.	.	16A\LL	-nes	(>16f#X\LL	-nes	.	.
.	.	.	.	.	.	16B\JJ	.	16g\JJ)	.	.	.
.	.	8d/	8d/	.	.	(>16c\LL	tu-	(>16a\LL	tuos	.	.
.	.	.	.	.	.	16B\JJ)	.	16g\JJ)	.	.	.
.	.	8d/J	8d/J	.	.	(>16c\LL	-os	(>16a\LL	.	.	.
.	.	.	.	.	.	16B\JJ)	.	16g\JJ)	.	.	.
=26	=26	=26	=26	=26	=26	=26	=26	=26	=26	=26	=26
8r	.	8d/L	8d/L	.	.	8A/	pa-	8f#X\	Pa-	.	.
8D/L	X #	8a/	8a/	.	.	8A/	-cem	8f#\	-cem	.	.
8D/	.	8a/	8a/	.	.	4r	.	4r	.	.	.
8D/J	.	8a/J	16a/L	.	.	.	.	.	.	.	.
.	.	.	16a/JJ	.	.	.	.	.	.	.	.
=27	=27	=27	=27	=27	=27	=27-	=27	=27	=27	=27	=27
8D/L	.	16a\LL	16a/LL	.	.	2r	.	2r	.	.	.
.	.	16b\	16b/	.	.	.	.	.	.	.	.
8D/	.	16a\	16a/	.	.	.	.	.	.	.	.
.	.	16b\JJ	16b/JJ	.	.	.	.	.	.	.	.
8D/	.	16cc\LL	16cc\LL	.	.	.	.	.	.	.	.
.	.	16b\	16b\	.	.	.	.	.	.	.	.
8D/J	.	16cc\	16cc\	.	.	.	.	.	.	.	.
.	.	16b\JJ	16b\JJ	.	.	.	.	.	.	.	.
!	!	!LO:LB:g=original	!	!	!	!	!	!	!	!	!
=28	=28	=28	=28	=28	=28	=28	=28	=28	=28	=28	=28
8D/L	X #	8a\L	8a/L	2r	.	(>16A\LL	fi-	(>16f#X\LL	Fi-	2r	.
.	.	.	.	.	.	16B\JJ)	.	16g\JJ)	.	.	.
8D/J	.	8d\	8d/	.	.	(>16A\LL	-nes	(>16f#X\LL	-nes	.	.
.	.	.	.	.	.	16B\JJ)	.	16g\JJ)	.	.	.
4r	.	8d\	8d/	.	.	(>16c\LL	tu-	(>16a\LL	tu-	.	.
.	.	.	.	.	.	16B\JJ)	.	16g\JJ)	.	.	.
.	.	8d\J	8d/J	.	.	(>16c\LL	-os	(>16a\LL	-os	.	.
.	.	.	.	.	.	16B\JJ)	.	16g\JJ)	.	.	.
=29	=29	=29	=29	=29-	=29	=29	=29	=29	=29	=29-	=29
!	!	!LO:TX:a:t=P:problem=mixed beam	!LO:TX:a:t=P:problem=mixed beam	!	!	!	!	!	!	!	!
8r	.	8d/L	8d/L	8r	.	8A/	pa-	8f#X\	pa-	8r	.
8F#X\L	X 6	8dd/	8dd\	8F#X\	et	16A,/	-cem	16f#\	-cem	16dd\	et
.	.	.	.	.	.	16A/	et	16d\	et	16dd\	a-
8G\	.	8dd/	8dd\	16G\	a-	16B\	a-	16g\	a-	8dd\	-di-
.	.	.	.	16G\	-di-	16B\	-di-	16g\	-di-	.	.
8D\J	X #	8dd/J	8dd\J	8D/	-pe	8A/	-pe	8f#X\	-pe	8dd\	-pe
!	!	!	!	!	!	!LO:LB:g=original	!	!	!	!	!
=30	=30	=30	=30	=30	=30	=30	=30	=30	=30	=30	=30
8r	.	8dd\L	8dd\L	8r	.	8r	.	8r	.	8r	.
8F#X\L	X 6	8dd\	8dd\	8F#X\	et	8A/	et	8d\	et	8dd\	et
!	!	!	!	!	!	!	!	!LO:LB:g=original	!	!LO:PB:g=original	!
8G\	.	8dd\	8dd\	16G\	a-	16B\	a-	16g\	adi-	16dd\	a-
.	.	.	.	16G\	-di-	16B\	-di-	16g\	-pe	16dd\	-di-
8D\J	X #	8dd\J	8dd\J	16D/	-pe	16A/	-pe	16f#X,\	fru-	16dd,\	-pe
.	.	.	.	16D/	fru-	16A/	fru-	16f#\	.	16dd\	fru-
=31	=31	=31	=31	=31	=31	=31	=31	=31	=31	=31	=31
!LO:TX:a:t=P:problem=mixed beam	!	!	!	!	!	!	!	!	!	!	!
8E\L	X 5	8gg\L	8gg\L	8E\	-men-	8G/	-men-	8g\	-men-	8b\	-men-
8C\	X 6	8aa\	8aa\	8C/	-ti	8A/	-ti	8e\	-ti	8ee,\	-ti
8D\	x #	8dd\	8dd\	8D/	ſa-	8F#X/	ſa-	8d\	ſa-	8a\	ſa-
!	!	!LO:SIC:s=8ff#	!	!	!	!	!	!	!	!	!
8DD/J	.	8ff\J	8ff#X\J	16D/	-ci-	16F#/	-ci-	16d\	-ci-	16dd\	-ci-
.	.	.	.	16D/	-at	16F#/	-at	16d\	-at	16dd\	-at
=32	=32	=32	=32	=32	=32	=32	=32	=32	=32	=32	=32
!LO:TX:a:t=P:problem=mixed beam	!	!	!	!	!	!	!	!	!	!	!
8GG/L	.	8gg\L	8gg\L	8GG/	te	8G,/	te	8d\	te	8b\	te
8G\	X 7	16dd\L	16dd\L	8r	.	16B\LL	ſa-	8r	.	16dd\LL	ſa-
.	.	16ee\JJ	16ee\JJ	.	.	16c\JJ	.	.	.	16ee\JJ	.
8G\	.	16ff\LL	16ffn\LL	4r	.	16d\LL	.	4r	.	16ff\LL	.
.	.	16ee\	16ee\	.	.	16c\	.	.	.	16ee\	.
8G\J	.	16ff\	16ff\	.	.	16d\	.	.	.	16ff\	.
.	.	16ee\JJ	16ee\JJ	.	.	16B\JJ	.	.	.	16ee\JJ	.
!	!	!	!LO:LB:g=original	!	!	!	!	!	!	!	!
=33	=33	=33	=33	=33	=33	=33	=33	=33	=33	=33	=33
(>8G\L	.	16dd\LL	16dd\LL	8G\	ſa-	16B\LL	.	8f\	ſa-	16dd\LL	.
.	.	16ee\	16ee\	.	.	16c\	.	.	.	16ee\	.
8G\	.	16dd\	16ddn\	16G\	-ci-	16B\	.	16f\	-ci-	16dd\	.
.	.	16ee\JJ	16ee\JJ	16G\	-at	16c\JJ	.	16f\	-at	16ee\JJ	.
8G\	.	16ff\LL	16dd\LL	4r	.	16d\LL	.	4r	.	16ff\LL	.
.	.	16ee\	16dd\	.	.	16c\	.	.	.	16ee\	.
8G\J)	.	16ff\	16ff\	.	.	16d\	.	.	.	16ff\	.
.	.	16ee\JJ	16ee\JJ	.	.	16c\JJ	.	.	.	16ee\JJ	.
!LO:PB:g=original	!	!	!	!LO:LB:g=original	!	!	!	!	!	!	!
=34	=34	=34	=34	=34	=34	=34	=34	=34	=34	=34	=34
!LO:TX:a:t=P:problem=mixed beam	!	!	!	!	!	!	!	!	!	!	!
8G\L	.	8dd\L	8dd\L	8G\	ſa-	8B\	.	8f\	ſa-	8dd\	.
!	!	!	!	!LO:N:vis=8	!	!	!	!	!	!	!
8C\	.	8ee\	8ee\	16c\	-ci-	16c\	-ti-	16e\	-ci-	16ee\	-ti-
.	.	.	.	16c\	-at	16c\	-at	16e\	-at	16ee\	-at
*	*	*	*	*	*	*	*	*	*ij	*	*
8G\	.	8dd\	8dd\	8G\	ſa-	8B\	ſa-	8g\	ſa-	8dd\	ſa-
!	!	!	!	!	!	!LO:LB:g=original	!	!	!	!	!
8GG/J	.	8gg\J	8gg\J	16GG/	-ci-	16B\	-ci-	16g\	-ci-	16dd\	-ti-
.	.	.	.	16GG/	-at	16B\	-at	16g\	-at	16dd\	-at
*	*	*	*	*	*	*	*	*	*Xij	*	*
=35	=35	=35	=35	=35	=35	=35	=35	=35	=35	=35	=35
!LO:TX:b:i:t=Solo	!	!	!	!	!	!	!	!	!	!	!
4C/	.	4ee\	4ee\	4C/	te	4c\	te	4g\	te	4cc\	te
8r	.	4r	4r	(>16G\LL	qui	4r	.	4r	.	4r	.
.	.	.	.	16F\JJ)	.	.	.	.	.	.	.
8BB/	X 6	.	.	(>16G\LL	e-	.	.	.	.	.	.
.	.	.	.	16D\JJ)	.	.	.	.	.	.	.
!	!	!	!	!	!	!	!	!LO:LB:g=original	!	!	!
=36	=36	=36	=36	=36	=36	=36	=36	=36	=36	=36	=36
!	!	!	!	!	!	!LO:N:vis=00	!	!LO:N:vis=00	!	!LO:N:vis=00	!
4C/	.	4c/	4c/	16E\LL	-mit-	0r	.	0r	.	0r	.
.	.	.	.	16C\	.	.	.	.	.	.	.
.	.	.	.	16E\	.	.	.	.	.	.	.
.	.	.	.	16G\JJ	.	.	.	.	.	.	.
8r	.	4r	4r	16c\LL	.	.	.	.	.	.	.
.	.	.	.	16B-X\	.	.	.	.	.	.	.
8E\	X 6	.	.	16c\	.	.	.	.	.	.	.
.	.	.	.	16G\JJ	.	.	.	.	.	.	.
=37	=37	=37	=37	=37	=37	=37	=37	=37	=37	=37	=37
4F\	.	4c/	4c/	8A\L	.	.	.	.	.	.	.
.	.	.	.	16c\L	.	.	.	.	.	.	.
.	.	.	.	16F\JJ	-tit	.	.	.	.	.	.
8r	.	4r	4r	8F,\	.	.	.	.	.	.	.
8A\	X 6	.	.	8C/	e-	.	.	.	.	.	.
=38	=38	=38	=38	=38	=38	=38	=38	=38	=38	=38	=38
8B-X\L	.	4e/	4c/	8D/L	-lo-	.	.	.	.	.	.
8A\J	X 6	.	.	16C/L	.	.	.	.	.	.	.
.	.	.	.	16D/JJ	.	.	.	.	.	.	.
8G\L	X -	4r	4r	8E\L	.	.	.	.	.	.	.
8C\J	.	.	.	16D\L	.	.	.	.	.	.	.
.	.	.	.	16E\JJ	.	.	.	.	.	.	.
=39	=39	=39	=39	=39	=39	=39	=39	=39	=39	=39	=39
8F\	.	4c/	4c/	8F\L	.	.	.	.	.	.	.
8r	.	.	.	16E\L	.	.	.	.	.	.	.
.	.	.	.	16F\JJ	.	.	.	.	.	.	.
8E\	X 6	4r	4r	8G\L	.	.	.	.	.	.	.
8r	.	.	.	16F\L	.	.	.	.	.	.	.
.	.	.	.	16G\JJ	.	.	.	.	.	.	.
!	!	!	!	!LO:LB:g=original	!	!	!	!	!	!	!
=40	=40	=40	=40	=40	=40	=40	=40	=40	=40	=40	=40
!	!	!	!	!	!	!LO:N:vis=00	!	!LO:N:vis=00	!	!LO:N:vis=00	!
4F\	.	4c/	4c/	8A\L	.	0r	.	0r	.	0r	.
.	.	.	.	16B-X\L	.	.	.	.	.	.	.
.	.	.	.	16c\JJ	.	.	.	.	.	.	.
8r	.	4r	4r	16B-X\LL	.	.	.	.	.	.	.
.	.	.	.	16A\	.	.	.	.	.	.	.
8BB-X/	.	.	.	16G\	.	.	.	.	.	.	.
.	.	.	.	16F\JJ	.	.	.	.	.	.	.
!	!	!LO:LB:g=original	!	!	!	!	!	!	!	!	!
=41	=41	=41	=41	=41	=41	=41	=41	=41	=41	=41	=41
4C/	.	4c/	4c/	8E\	.	.	.	.	.	.	.
.	.	.	.	16D/	-qui-	.	.	.	.	.	.
.	.	.	.	16C,/	-um	.	.	.	.	.	.
8r	.	4r	4r	[>4F\	ſu-	.	.	.	.	.	.
8AA/	X 6	.	.	.	.	.	.	.	.	.	.
=42	=42	=42	=42	=42	=42	=42	=42	=42	=42	=42	=42
!	!	!	!	!LO:TX:a:t=P:problem=w źródle nuta zapisana jako kropka przedłużająca ostatnią nutę z poprzedniego taktu	!	!	!	!	!	!	!
8BB-X/L	.	2r	8r	8F\]	-um	.	.	.	.	.	.
8GG/	.	.	8f/L	8G,\	.	.	.	.	.	.	.
8C/	.	.	8e/	4E\	ter-	.	.	.	.	.	.
8CC/J	.	.	8d/J	.	.	.	.	.	.	.	.
=43	=43	=43	=43	=43	=43	=43	=43	=43	=43	=43	=43
!LO:TX:a:t=P:problem=mixed beam	!	!	!	!	!	!	!	!	!	!	!
8FF/L	.	8r	2ryy	4F\	-rae	.	.	.	.	.	.
8F\	.	8f/L	.	.	.	.	.	.	.	.	.
8E\	.	8e/	.	8r	.	.	.	.	.	.	.
8C\J	.	8d/J	.	8G\	ve-	.	.	.	.	.	.
!LO:LB:g=original	!	!	!	!	!	!	!	!	!	!	!
=44	=44	=44	=44	=44	=44	=44	=44	=44	=44	=44	=44
!	!	!	!	!	!	!LO:N:vis=00	!	!LO:N:vis=00	!	!LO:N:vis=00	!
8F\	.	16f/LL	16f/LL	16A\LL	-lo-	0r	.	0r	.	0r	.
.	.	16e/	16e/	16G\	.	.	.	.	.	.	.
8r	.	16d/	16d/	16F\	.	.	.	.	.	.	.
.	.	16e/JJ	16e/JJ	16A\JJ	.	.	.	.	.	.	.
8C/	.	16e/LL	16e/LL	16G\LL	.	.	.	.	.	.	.
.	.	16d/	16d/	16F\	.	.	.	.	.	.	.
8r	.	16c/	16c/	16E\	.	.	.	.	.	.	.
.	.	16d/JJ	16d/JJ	16G\JJ	.	.	.	.	.	.	.
!	!	!	!LO:LB:g=original	!	!	!	!	!	!	!	!
=45	=45	=45	=45	=45	=45	=45	=45	=45	=45	=45	=45
8D/	.	16d/LL	16d/LL	16F\LL	.	.	.	.	.	.	.
.	.	16c/	16c/	16E\	.	.	.	.	.	.	.
8r	.	16B/	16B/	16D\	.	.	.	.	.	.	.
.	.	16d/JJ	16d/JJ	16F\JJ	.	.	.	.	.	.	.
8C/	.	16c/LL	16c/LL	16E\LL	.	.	.	.	.	.	.
.	.	16B/	16B/	16D\	.	.	.	.	.	.	.
8r	.	16A/	16A/	16C\	.	.	.	.	.	.	.
.	.	16c/JJ	16c/JJ	16E\JJ	.	.	.	.	.	.	.
=46	=46	=46	=46	=46	=46	=46	=46	=46	=46	=46	=46
4GG/	.	4B/	4B/	8D/	.	.	.	.	.	.	.
.	.	.	.	16GG/	-ci-	.	.	.	.	.	.
.	.	.	.	16GG,/	-ter	.	.	.	.	.	.
8r	.	8r	8r	16G\	Cu-	.	.	.	.	.	.
.	.	.	.	16G\	-rit	.	.	.	.	.	.
!	!	!	!	!LO:LB:g=original	!	!	!	!	!	!	!
8BB/	X 6	8d/	8d/	16G\	Cu-	.	.	.	.	.	.
.	.	.	.	16G\	-rit	.	.	.	.	.	.
=47	=47	=47	=47	=47	=47	=47	=47	=47	=47	=47	=47
4C/	.	4e/	4e/	16G\	Cu-	.	.	.	.	.	.
.	.	.	.	16G,\	-rit	.	.	.	.	.	.
*	*	*	*	*	*ij	*	*	*	*	*	*
.	.	.	.	16G\	Cu-	.	.	.	.	.	.
.	.	.	.	16G,\	-rit	.	.	.	.	.	.
*	*	*	*	*	*Xij	*	*	*	*	*	*
8r	.	8r	8r	16G\	Cu-	.	.	.	.	.	.
.	.	.	.	16G\	-rit	.	.	.	.	.	.
*	*	*	*	*	*ij	*	*	*	*	*	*
8BB/	X 6	8d/	8d/	16G\	Cu-	.	.	.	.	.	.
.	.	.	.	16G,\	-rit	.	.	.	.	.	.
*	*	*	*	*	*Xij	*	*	*	*	*	*
=48	=48	=48	=48	=48	=48	=48	=48	=48	=48	=48	=48
!LO:TX:a:t=P:problem=mixed beam	!	!	!	!	!	!	!	!LO:N:vis=0	!	!LO:N:vis=0	!
!	!	!	!	!	!	!LO:N:vis=0	!	!	!	!	!
8C\L	.	8e/L	8e/L	8G\	ſer-	1r	.	1r	.	1r	.
8F\	.	8c/J	8c/J	(>16A\LL	-mo	.	.	.	.	.	.
.	.	.	.	16D\JJ)	.	.	.	.	.	.	.
8G\	.	4B/	4B/	4D/	e-	.	.	.	.	.	.
8GG/J	.	.	.	.	.	.	.	.	.	.	.
=49	=49	=49	=49	=49	=49	=49	=49	=49	=49	=49	=49
!LO:TX:a:t=P:problem=mixed beam	!	!	!	!	!	!	!	!	!	!	!
8C/L	.	4c/	4c/	8C,/	-jus	.	.	.	.	.	.
8E\J	X 6	.	.	16c\	Cu-	.	.	.	.	.	.
.	.	.	.	16B\	-rit	.	.	.	.	.	.
!	!	!LO:LB:g=original	!	!	!	!	!	!	!	!	!
8F\L	.	8r	8r	(>16B\LL	ſer-	.	.	.	.	.	.
.	.	.	.	16G\JJ)	.	.	.	.	.	.	.
8D\J	.	8a/	8a/	(>16G\LL	-mo	.	.	.	.	.	.
.	.	.	.	16E\JJ)	.	.	.	.	.	.	.
=50	=50	=50	=50	=50	=50	=50	=50	=50	=50	=50	=50
!LO:TX:a:t=P:problem=mixed beam	!	!	!LO:TX:a:t=P:problem=mixed beam	!	!	!	!	!	!	!	!
8G\L	.	8b\L	8b\L	8D/	ſer-	2r	.	2r	.	2r	.
8C\	.	8cc\J	8cc\	(>16E\LL	-mo	.	.	.	.	.	.
.	.	.	.	16F\JJ)	.	.	.	.	.	.	.
!	!	!LO:TX:a:t=P:problem=mixed beam	!	!LO:TX:a:t=P:problem=mixed beam	!	!	!	!	!	!	!
8G\	.	8d/L	8d/	(<8G\L	e-	.	.	.	.	.	.
8GG/J	.	8b\J	8b\J	8GG/J)	.	.	.	.	.	.	.
=51	=51	=51	=51	=51	=51	=51-	=51	=51-	=51	=51-	=51
!LO:TX:a:t=P:problem=mixed beam	!	!	!	!	!	!	!	!	!	!	!
!LO:TX:b:i:t=Tut	!	!	!	!	!	!	!	!	!	!	!
!	!	!	!	!	!	!LO:TX:a:t=cla	!	!	!	!	!
8C/L	.	4cc\	4cc\	8C/	-jus	8r	.	8r	.	8r	.
!	!	!	!	!LO:LB:g=original	!	!	!	!	!	!	!
16c\L	.	.	.	16c\	qui	16c\	qui	16g\	qui	16ee\	qui
16B\JJ	.	.	.	16B\	dat	16d\	dat	16g\	dat	16dd\	dat
8c\L	.	8r	8r	8c\	ni-	8c\	ni-	8g\	ni-	8ee\	ni-
8G\J	.	16gg\LL	16gg\LL	8G\	-vem	8B\	-vem	8g\	-vem	8dd\	-vem
.	.	16gg\JJ	16gg\JJ	.	.	.	.	.	.	.	.
=52	=52	=52	=52	=52	=52	=52	=52	=52	=52	=52	=52
8r	.	8gg\L	8gg\L	8r	.	8r	.	8r	.	8r	.
16c\LL	.	8gg\J	8gg\J	16c\	ſi-	16c\	ſi-	16g\	ſi-	16ee\	ſi-
16B\JJ	.	.	.	16B\	-cut	16d\	-cut	16g\	-cut	16dd\	-cut
8c\L	.	8r	8r	8c\	la-	8c\	la-	8g\	la-	8ee\	la-
8G\J	.	8gg\	8gg\	8G,\	-nam	8B\	-nam	8g\	-nam	8dd\	-na(m)
!LO:LB:g=original	!	!	!	!	!	!	!	!	!	!	!
=53	=53	=53	=53	=53	=53	=53	=53	=53	=53	=53	=53
!	!	!LO:SIC:s=4.cc	!	!	!	!	!	!	!	!	!
8A\L	.	4.b\	4.cc\	8A\	Ne-	8c\	Ne-	8e\	ne-	8cc\	ne-
8G\	.	.	.	16G\	-bu-	16B\	-bu-	16e\	-bu-	16cc\	-bu-
.	.	.	.	16G\	-la(m)	16B,\	-lam	16e\	-lam	16cc\	-la(m)
8F#X\	X 5	.	.	8F#X\	ſi-	8A/	ſi-	8a\	ſi-	8cc\	ſi-
!	!	!LO:SIC:s=8dd	!	!	!	!	!	!	!	!	!
8D\J	X #	8cc\	8dd\	8D/	-cut	8A/	-cut	8f#X\	-cut	8dd\	-cut
=54	=54	=54	=54	=54	=54	=54	=54	=54	=54	=54	=54
8G\L	.	8b\L	8b\L	8G\	Ci-	8B\	Ci-	8g\	Ci-	8b\	Ci-
8C\J	.	8ee\	8ee\	16C/	-ne-	16c\	-ne-	16e\	-ne-	16a\	-ne-
.	.	.	.	16C/	-rem	16B\	-rem	16e\	-rem	16g/	-rem
!	!	!	!	!	!	!LO:LB:g=original	!	!	!	!	!
8D/L	X #	8a\	8a\	4D/	ſpar-	4A/	ſpar-	4d\	ſpar-	4f#X/	ſpar-
8DD/J	.	8dd\J	8dd\J	.	.	.	.	.	.	.	.
=55	=55	=55	=55	=55	=55	=55	=55	=55	=55	=55	=55
4GG/	.	4b\	4b\	4GG/	-git	4B\	-git	4d\	-git	4g/	-git
!	!	!	!	!	!	!	!	!LO:LB:g=original	!	!	!
4r	.	4r	4r	4r	.	8r	.	16r	.	16r	.
.	.	.	.	.	.	.	.	16e\LL	ſpar-	16cc\LL	spar-
.	.	.	.	.	.	8E/	ſpar-	16d\	.	16b\	.
.	.	.	.	.	.	.	.	16e\JJ	.	16cc\JJ	.
!	!	!	!LO:LB:g=original	!	!	!	!	!	!	!	!
=56	=56	=56	=56	=56	=56	=56	=56	=56	=56	=56	=56
16r	.	16r	16r	16r	.	8F/	.	8c/	.	8a\	-git
16F\LL	.	16a/LL	16a/LL	16F\LL	ſpar-	.	.	.	.	.	.
16E\	.	16f/	16f/	16E\	.	8F/	-git	8c/	-git	8a\	.
16F\JJ	.	16a/JJ	16a/JJ	16F\JJ	.	.	.	.	.	.	.
8D\L	.	4e/	4e/	8D/	.	8r	.	16r	.	16r	.
*	*	*	*	*	*	*	*ij	*	*ij	*	*
.	X -	.	.	.	.	.	.	16f\LL	ſpar-	16dd\LL	ſpar-
8D\J	.	.	.	8D/	-git	8D/	ſpar-	16e\	.	16cc\	.
.	.	.	.	.	.	.	.	16f\JJ	.	16dd\JJ	.
!	!	!	!	!LO:LB:g=original	!	!	!	!	!	!LO:LB:g=original	!
=57	=57	=57	=57	=57	=57	=57	=57	=57	=57	=57	=57
16r	.	16r	16r	16r	.	8G/	.	8d\	.	8b\	-git
16G\LL	.	16b\LL	16b/LL	16G\LL	ſpar-	.	.	.	.	.	.
16F\	.	16a\	16a/	16F\	.	8G/	-git	8d\	-git	8b\	.
*	*	*	*	*	*	*	*Xij	*	*	*	*
16G\JJ	.	16b\JJ	16b/JJ	16G\JJ	.	.	.	.	.	.	.
!	!	!LO:TX:a:t=P:problem=mixed beam	!LO:TX:a:t=P:problem=mixed beam	!	!	!	!	!	!	!	!
8E\L	.	8g/L	8g/L	8E\	.	8r	.	16r	.	16r	.
.	.	.	.	.	.	.	.	16g\LL	ſpar-	16ee\LL	-ſpar-
8E\J	.	8gg\J	8gg\J	8E\	-git	8G/	ſpar-	16f\	.	16dd\	.
.	.	.	.	.	.	.	.	16g\JJ	.	16ee\JJ	.
=58	=58	=58	=58	=58	=58	=58	=58	=58	=58	=58	=58
!	!	!LO:SIC:s=(8cc)x4	!	!	!	!	!	!	!	!	!
8A\L	X 3	8b\L	8cc\L	8A\	Ne-	8c\	.	8e\	.	8cc\	-git
8G\	.	8b\	8cc\	16G\	-bu-	8B,\	-git	8e,\	-git	8cc,\	.
*	*	*	*	*	*	*	*	*	*Xij	*	*
.	.	.	.	16G\	-lam	.	.	.	.	.	.
8F\	.	8b\	8cc\	8F\	ſi-	8A/	ſi-	8f\	ſi-	8cc\	ſi-
8E\J	.	8b\J	8cc\J	8E\	-cut	8G/	-cut	8g\	-cut	8cc\	-cut
!	!	!LO:PB:g=original	!	!	!	!	!	!	!	!	!
=59	=59	=59	=59	=59	=59	=59	=59	=59	=59	=59	=59
!LO:TX:a:t=P:problem=mixed beam	!	!LO:SIC:s=8cc	!	!	!	!	!	!	!	!	!
8F\L	.	8b\L	8cc\L	8F\	Ci-	8A/	Ci-	8a\	ci-	8cc\	Ci-
!	!	!LO:SIC:s=16dd	!	!	!	!	!	!	!	!	!
8D\	.	16cc\L	16dd\L	16D/	-ne-	16A/	-ne-	16f\	-ne-	16dd\	-ne-
!	!	!LO:SIC:s=16ee	!	!	!	!	!	!	!	!	!
.	.	16dd\JJ	16ee\JJ	16D,/	-rem	16A/	-rem	16e\	-re(m)	16ee\	-rem
!	!	!LO:SIC:s=4b	!	!LO:TX:a:t=P:problem=mixed beam	!	!	!	!	!	!	!
8G\	.	4a\	4b\	8G\L	ſpar-	4G/	ſpar-	4d\	ſpar-	4b\	ſpar-
8GG/J	.	.	.	8GG/J	.	.	.	.	.	.	.
=60	=60	=60	=60	=60	=60	=60	=60	=60	=60	=60	=60
!LO:TX:i:b:t=Solo	!	!LO:SIC:s=8cc	!	!	!	!	!	!	!	!	!
4C/	.	8b\	8cc\	8C/	-git	8G/	-git	8e\	-git	8cc\	-git
.	.	8r	8r	8r	.	8r	.	8r	.	8ee\	.
4GG#X/	X 6	4r	4r	4r	.	4r	.	4r	.	8ee\	Mit-
.	.	.	.	.	.	.	.	.	.	8ee\	-tit
=61	=61	=61	=61	=61	=61	=61	=61	=61	=61	=61	=61
!	!	!	!	!LO:N:vis=00	!	!LO:N:vis=00	!	!LO:N:vis=00	!	!	!
8AA/L	.	2r	2r	0r	.	0r	.	0r	.	8cc\	Cri-
8GG/J	X 6	.	.	.	.	.	.	.	.	8b\	-ſtal-
.	X 7	.	.	.	.	.	.	.	.	.	.
4FF/	X 6	.	.	.	.	.	.	.	.	8a\	.
.	.	.	.	.	.	.	.	.	.	16b\LL	-lum
.	.	.	.	.	.	.	.	.	.	16a\JJ	.
=62	=62	=62	=62	=62	=62	=62	=62	=62	=62	=62	=62
8EE/	X #	16r	16r	.	.	.	.	.	.	4g#X/	ſuam
.	.	16ee\LL	16ee\LL	.	.	.	.	.	.	.	.
!LO:LB:g=original	!	!	!	!	!	!	!	!	!	!	!
8E\	.	16gg#X\	16gg#X\	.	.	.	.	.	.	.	.
.	.	16ee\JJ	16ee\JJ	.	.	.	.	.	.	.	.
!	!	!	!LO:PB:g=original	!	!	!	!	!	!	!	!
!	!	!LO:TX:a:t=P:problem=mixed beam	!LO:TX:a:t=P:problem=mixed beam	!	!	!	!	!	!	!	!
8C/L	X 6	16aa\LL	16aa\LL	.	.	.	.	.	.	4r	.
.	.	16a/	16a/	.	.	.	.	.	.	.	.
8GG/J	.	16cc/	16cc/	.	.	.	.	.	.	.	.
.	.	16a/JJ	16a/JJ	.	.	.	.	.	.	.	.
=63	=63	=63	=63	=63	=63	=63	=63	=63	=63	=63-	=63
!	!	!	!	!	!	!	!	!	!	!LO:N:vis=0	!
4AA/	X 5	8dd\L	8dd\L	.	.	.	.	.	.	1r	.
.	.	8dd\	8dd\	.	.	.	.	.	.	.	.
16r	.	8dd\	8dd\	.	.	.	.	.	.	.	.
16AA/LL	.	.	.	.	.	.	.	.	.	.	.
16D/	.	8dd\J	8dd\J	.	.	.	.	.	.	.	.
16AA/JJ	.	.	.	.	.	.	.	.	.	.	.
=64	=64	=64	=64	=64	=64	=64	=64	=64	=64	=64	=64
!LO:TX:a:t=P:problem=mixed beam	!	!	!	!	!	!	!	!	!	!	!
8E\L	X #	8ee\L	8ee\L	.	.	.	.	.	.	.	.
8AA/J	.	16cc\L	16cc\L	.	.	.	.	.	.	.	.
.	.	16b\JJ	16b\JJ	.	.	.	.	.	.	.	.
!LO:TX:a:t=P:problem=mixed beam	!	!LO:TX:a:t=P:problem=mixed beam	!LO:TX:a:t=P:problem=mixed beam	!	!	!	!	!	!	!	!
8E\L	.	8a/L	8a/L	.	.	.	.	.	.	.	.
8EE/J	.	8gg#X\J	8gg#X\J	.	.	.	.	.	.	.	.
=65	=65	=65	=65	=65	=65	=65	=65	=65	=65	=65-	=65
!	!	!	!	!LO:N:vis=00	!	!LO:N:vis=00	!	!LO:N:vis=00	!	!	!
4AA/	.	4aa\	4aa\	0r	.	0r	.	0r	.	8r	.
.	.	.	.	.	.	.	.	.	.	8ee\	Mit-
8r	.	4r	4r	.	.	.	.	.	.	8cc\	-tit
8A\	.	.	.	.	.	.	.	.	.	8a\	Cri-
=66	=66	=66	=66	=66	=66	=66	=66	=66	=66	=66	=66
8F\L	X 6	4r	4r	.	.	.	.	.	.	8dd\	-ſtal-
!	!	!	!	!	!	!	!	!	!	!LO:LB:g=original	!
8E\	.	.	.	.	.	.	.	.	.	8dd\	-lum
8F\	.	8r	8r	.	.	.	.	.	.	8dd\	ſu-
8D\J	.	8aa\	8aa\	.	.	.	.	.	.	8ff,\	-am
=67	=67	=67	=67	=67	=67	=67	=67	=67	=67	=67	=67
8E/L	7 #	8gg#X\L	8gg#X\L	.	.	.	.	.	.	8b\	ſi-
8AA/J	.	16aa\L	16aa\L	.	.	.	.	.	.	16cc\	-cut
.	.	16bb\JJ	16bb\JJ	.	.	.	.	.	.	16dd\	buc-
!LO:TX:a:t=P:problem=mixed beam	!	!	!	!	!	!	!	!	!	!	!
8E\L	X #	8ee\L	8ee\L	.	.	.	.	.	.	4b\	-cel-
8EE/J	.	8gg#X\J	8gg#X\J	.	.	.	.	.	.	.	.
!	!	!LO:LB:g=original	!	!	!	!	!	!	!	!	!
=68	=68	=68	=68	=68	=68	=68	=68	=68	=68	=68	=68
4AA/	.	4aa\	4aa\	.	.	.	.	.	.	8a,\	-las
.	.	.	.	.	.	.	.	.	.	16a\	an-
.	.	.	.	.	.	.	.	.	.	16b\	-te
4r	.	4r	4r	.	.	.	.	.	.	8cc\	fa-
.	.	.	.	.	.	.	.	.	.	16b\	-ci-
.	.	.	.	.	.	.	.	.	.	16a\	-em
=69	=69	=69	=69	=69	=69	=69	=69	=69	=69	=69	=69
!	!	!	!	!LO:N:vis=00	!	!LO:N:vis=00	!	!LO:N:vis=00	!	!	!
2r	.	8d/L	8r	0r	.	0r	.	0r	.	4.dd\	fri-
.	.	8e/J	16d/LL	.	.	.	.	.	.	.	.
.	.	.	16e/JJ	.	.	.	.	.	.	.	.
.	.	8f/L	8f/L	.	.	.	.	.	.	.	.
.	.	16e/L	16e/L	.	.	.	.	.	.	16ee\	-go-
.	.	16d/JJ	16d/JJ	.	.	.	.	.	.	16ff\	-ris
=70	=70	=70	=70	=70	=70	=70	=70	=70	=70	=70	=70
4r	.	4f/	4f/	.	.	.	.	.	.	8b\	e-
.	.	.	.	.	.	.	.	.	.	8g/	-jus
8r	.	8r	8r	.	.	.	.	.	.	4cc\	quis
8E\	X 6	8gg\	8gg\	.	.	.	.	.	.	.	.
!	!	!	!LO:LB:g=original	!	!	!	!	!	!	!	!
=71	=71	=71	=71	=71	=71	=71	=71	=71	=71	=71	=71
4A\	.	4cc\	4cc\	.	.	.	.	.	.	8r	.
*	*	*	*	*	*	*	*	*	*	*	*ij
.	.	.	.	.	.	.	.	.	.	8cc\	e-
8r	.	8r	8r	.	.	.	.	.	.	4ff\	-jus
*	*	*	*	*	*	*	*	*	*	*	*Xij
8F\	.	8aa\	8aa\	.	.	.	.	.	.	.	.
=72	=72	=72	=72	=72	=72	=72	=72	=72	=72	=72	=72
8G\L	X 7	8b\L	8b\L	.	.	.	.	.	.	8ff\	ſu-
8C\J	.	8b\J	8cc\J	.	.	.	.	.	.	(>16ee\LL	-ſti-
.	.	.	.	.	.	.	.	.	.	16dd\JJ)	.
!LO:TX:a:t=P:problem=mixed beam	!	!LO:TX:a:t=P:problem=mixed beam	!LO:TX:a:t=P:problem=mixed beam	!	!	!	!	!	!	!	!
8G\L	.	8d/L	8d/L	.	.	.	.	.	.	4dd\	-ne-
8GG/J	.	8b\J	8b\J	.	.	.	.	.	.	.	.
!LO:LB:g=original	!	!	!	!	!	!	!	!	!	!LO:LB:g=original	!
=73	=73	=73	=73	=73	=73	=73	=73	=73	=73	=73	=73
!	!	!	!	!LO:N:vis=00	!	!LO:N:vis=00	!	!LO:N:vis=00	!	!	!
4C/	.	4cc\	4cc\	0r	.	0r	.	0r	.	8cc,\	-bit
.	.	.	.	.	.	.	.	.	.	8ee\	quis
*	*	*	*	*	*	*	*	*	*	*	*ij
8r	.	8r	8r	.	.	.	.	.	.	4a\	quis
8F\	.	8a/	8a/	.	.	.	.	.	.	.	.
=74	=74	=74	=74	=74	=74	=74	=74	=74	=74	=74	=74
4D/	.	4dd\	4dd\	.	.	.	.	.	.	8r	.
.	.	.	.	.	.	.	.	.	.	8ff\	quis
*	*	*	*	*	*	*	*	*	*	*	*Xij
8r	.	8r	8r	.	.	.	.	.	.	4b\	quis
8G\	.	8a/	8a/	.	.	.	.	.	.	.	.
=75	=75	=75	=75	=75	=75	=75	=75	=75	=75	=75	=75
4E\	.	4ee\	4ee\	.	.	.	.	.	.	8r	.
*	*	*	*	*	*	*	*	*	*	*	*ij
.	.	.	.	.	.	.	.	.	.	8gg\	quis
8r	.	8r	8r	.	.	.	.	.	.	8cc\	quis
*	*	*	*	*	*	*	*	*	*	*	*Xij
8A\	.	16ee\LL	16ee\LL	.	.	.	.	.	.	8cc\	quis
.	.	16ff\JJ	16ff\JJ	.	.	.	.	.	.	.	.
=76	=76	=76	=76	=76	=76	=76	=76	=76	=76	=76	=76
!LO:TX:a:t=P:problem=mixed beam	!	!	!	!	!	!	!	!	!	!	!
8E\L	X 6	8gg\L	8gg\L	.	.	.	.	.	.	8cc\	ſus-
8F\	X 6	16aa\L	16aa\L	.	.	.	.	.	.	16dd\LL	-ti-
.	.	16dd\JJ	16dd\JJ	.	.	.	.	.	.	16ee\JJ	.
8G\	.	8dd\L	8dd\L	.	.	.	.	.	.	4b\	-ne-
8GG/J	.	8gg\J	8gg\J	.	.	.	.	.	.	.	.
!	!	!	!	!	!	!LO:LB:g=original	!	!LO:LB:g=original	!	!	!
=77	=77	=77	=77	=77	=77	=77	=77	=77	=77	=77	=77
!LO:TX:a:t=P:problem=mixed beam	!	!	!	!	!	!	!	!	!	!	!
!LO:TX:i:b:t=Tut	!	!	!	!	!	!	!	!	!	!	!
8C/L	.	8ee\L	8ee\L	8r	.	8r	.	8r	.	8cc,\	-bit
8c\	.	8ee\	8ee\	8c\	E-	8G/	E-	8a\	E-	8g/	E-
8B\	.	8dd\	8dd\	8B\	-mit-	8G/	-mit-	8g\	-mit-	8g/	-mit-
8G\J	.	8gg\J	8gg\J	8G\	-tet	8G/	-tet	8g\	-tet	8g/	-tet
=78	=78	=78	=78	=78	=78	=78	=78	=78	=78	=78	=78
!LO:TX:a:t=P:problem=mixed beam	!	!	!	!	!	!	!	!	!	!	!
8c\L	.	8ee\L	8ee\L	8c\	Ver-	4G/	Ver-	4g\	Ver-	4g/	ver-
8C/J	.	8cc\J	8cc\J	8C\	-bum	.	.	.	.	.	.
8r	.	8r	8r	8r	.	8G,/	-bu(m)	8g,\	-bu(m)	8g/	-bu(m)
8c\	.	8ee\	8ee\	8c\	e-	8G/	e-	8g\	e-	8ee\	E-
!	!	!LO:LB:g=original	!	!LO:LB:g=original	!	!	!	!	!	!	!
=79	=79	=79	=79	=79	=79	=79	=79	=79	=79	=79	=79
8B\L	X 6	8dd\L	8dd\L	8B\	-mit-	8G/	-mit-	8g\	-mit-	8dd\	-mit-
8A\	.	8cc\	8cc\	8A\	-tet	8G,/	-tet	8g\	-tet	8cc\	-tet
8B\	.	8dd\	8dd\	8B\	Ver-	8G/	Ver-	8g\	Ver-	8dd\	ver-
8G\J	.	8gg\J	8gg\J	8G\	-bu(m)	8B\	-bu(m)	8g\	-bum	8b\	-bu(m)
=80	=80	=80	=80	=80	=80	=80	=80	=80	=80	=80	=80
!LO:TX:a:t=P:problem=mixed beam	!	!	!	!	!	!	!	!	!	!	!
8c\L	.	8ee\L	8ee\L	8c\	ſu-	8c\	ſu-	8g\	ſu-	8ee\	ſu-
8C/J	.	8gg\	8gg\J	8C/	-um	8c\	-um	8g\	-um	8ee\	-u(m)
!	!	!	!LO:LB:g=original	!	!	!	!	!	!	!	!
8r	.	8gg\	8gg\L	8r	.	8r	.	8r	.	8r	.
8C/	.	8gg\J	8gg\J	8C/	et	8c\	et	8g\	et	8ee\	et
!	!	!	!	!	!	!	!	!	!	!LO:LB:g=original	!
=81	=81	=81	=81	=81	=81	=81	=81	=81	=81	=81	=81
8C#X/L	6 5	16gg\LL	16gg\LL	8C#X/	li-	8A/	li-	8g\	li-	8ee\	li-
.	.	16ee\	16ee\	.	.	.	.	.	.	.	.
8C#/	: :	16cc#X\	16cc#X\	8C#,/	-que	8A/	-que-	8g\	-que	8ee\	-que
.	.	16ee\JJ	16ee\JJ	.	.	.	.	.	.	.	.
!	!	!LO:TX:a:t=P:problem=mixed beam	!LO:TX:a:t=P:problem=mixed beam	!	!	!	!	!	!	!	!
8C#/	.	16a/LL	16a/LL	8C#/	fa-	8A/	-fa-	8g\	ſa-	8ee\	fa-
.	.	16gg\	16gg\	.	.	.	.	.	.	.	.
8C#/J	.	16gg\	16gg\	16C#/	-ci-	16A/	-ci-	16g\	-ci-	16ee\	-ci-
.	.	16gg\JJ	16gg\JJ	16C#/	-et	16A/	-et	16g\	-et	16ee\	-et
=82	=82	=82	=82	=82	=82	=82	=82	=82	=82	=82	=82
!	!	!LO:TX:a:t=P:problem=mixed beam	!LO:TX:a:t=P:problem=mixed beam	!	!	!	!	!	!	!	!
8D/L	.	16ff\LL	16ff\LL	8D/	ea	8A/	ea	8a\	e-	8dd\	e-
.	.	16a/	16a/	.	.	.	.	.	.	.	.
8D/J	.	16a/	16a/	8D,/	.	8A,/	.	8f\	-a	8dd,\	-a
.	.	16a/JJ	16a\JJ	.	.	.	.	.	.	.	.
!LO:LB:g=original	!	!	!	!	!	!	!	!LO:LB:g=original	!	!	!
8D/L	.	16a/LL	16a/LL	8D/	fla-	8A/	fla-	8f\	fla-	8dd\	fla-
.	.	16a/	16a/	.	.	.	.	.	.	.	.
8C#X/J	X 6	16a/	16a/	8C#X/	-bit	8A/	-bit	8e\	-bit	8a\	-bit
.	.	16a/JJ	16a/JJ	.	.	.	.	.	.	.	.
!	!	!	!	!	!	!LO:LB:g=original	!	!	!	!	!
=83	=83	=83	=83	=83	=83	=83	=83	=83	=83	=83	=83
8D/L	.	16a/LL	16a/LL	8D/	ſpi-	8A/	ſpi-	8f\	ſpi-	8a\	ſpi-
.	.	16a/	16a/	.	.	.	.	.	.	.	.
8Cn/J	X 6	16a/	16a/	16Cn/	-ri-	16A/	-ri-	16e\	-ri-	16a\	-ri-
.	X 7	16a/JJ	16a/JJ	16C/	-tu(s)	16A/	-tus	16e\	-tu(s)	16a\	-tus
4BB-X/	X 6	16d/LL	16d/LL	4BB-X/	e-	4B-X\	e-	4d\	e-	(>8a\L	e-
.	.	16e/	16e/	.	.	.	.	.	.	.	.
.	.	16f/	16f/	.	.	.	.	.	.	8g\)J	.
.	.	16g/JJ	16g/JJ	.	.	.	.	.	.	.	.
=84	=84	=84	=84	=84	=84	=84	=84	=84	=84	=84	=84
!	!	!LO:TX:a:t=P:problem=mixed beam	!LO:TX:a:t=P:problem=mixed beam	!	!	!	!	!	!	!	!
4AA/	X #	8a\L	8a\L	4AA/	-jus	4E/	-ius	4c#X/	-jus	4a\	-jus
.	.	8A/	8A/	.	.	.	.	.	.	.	.
4r	.	8A/	8A/	4r	.	4r	.	8r	.	8r	.
.	.	8A/J	8A/J	.	.	.	.	16c#X/LL	fla-	16e/LL	fla-
.	.	.	.	.	.	.	.	16d/JJ	.	16f/JJ	.
!	!	!	!	!LO:PB:g=original	!	!	!	!	!	!	!
=85	=85	=85	=85	=85	=85	=85	=85	=85	=85	=85	=85
2r	.	8A/L	8A/L	2r	.	2r	.	16e\LL	.	16g/LL	.
.	.	.	.	.	.	.	.	16d\	.	16f/	.
.	.	8A/	8A/	.	.	.	.	16c#X\	.	16e/	.
!	!	!	!	!LO:TX:a:t=1	!	!	!	!	!	!	!
.	.	.	.	.	.	.	.	16d\JJ	.	16f/JJ	.
.	.	8A/	8A/	.	.	.	.	16e\LL	.	16g/LL	.
.	.	.	.	.	.	.	.	16d\	.	16f/	.
.	.	8A/J	8A/J	.	.	.	.	16c#X\	.	16e/	.
.	.	.	.	.	.	.	.	16d\JJ	.	16f/JJ	.
=86	=86	=86	=86	=86	=86	=86	=86	=86	=86	=86	=86
4AA/	7 #	8A/L	8A/L	8A\	fla-	8c#X\	fla-	8e\	.	8g/	-bit
.	.	8A/	8A/	8A\	-bit	8c#\	-bit	8e\	-bit	8g/	.
4r	.	8A/	8A/	4r	.	4r	.	8r	.	8r	.
.	.	8A/J	8A/J	.	.	.	.	16c#X/LL	Fla-	16e/LL	fla-
.	.	.	.	.	.	.	.	16d/JJ	.	16f/JJ	.
=87	=87	=87	=87	=87	=87	=87	=87	=87	=87	=87	=87
2r	.	8A/L	8A/L	2r	.	2r	.	16e\LL	.	16g/LL	.
.	.	.	.	.	.	.	.	16d\	.	16f/	.
.	.	8A/J	8A/	.	.	.	.	16c#X\	.	16e/	.
.	.	.	.	.	.	.	.	16d\JJ	.	16f/JJ	.
!	!	!LO:LB:g=original	!	!	!	!	!	!	!	!LO:LB:g=original	!
.	.	8A/L	8A/	.	.	.	.	16e\LL	.	16g/LL	.
.	.	.	.	.	.	.	.	16d\	.	16f/	.
.	.	8A/J	8A/J	.	.	.	.	16c#X\	.	16e/	.
.	.	.	.	.	.	.	.	16d\JJ	.	16f/JJ	.
!	!	!	!	!	!	!	!	!LO:LB:g=original	!	!	!
=88	=88	=88	=88	=88	=88	=88	=88	=88	=88	=88	=88
!	!	!	!LO:TX:a:t=P:problem=mixed beam	!	!	!	!	!	!	!	!
4AA/	X 7#	8A/L	8A/L	8A\	fla-	8c#X\	fla-	8e\	.	8g/	-bit
.	.	8f/J	8a\J	8A\	-bit	8c#\	-bit	8e,\	-bit	8g,/	.
*	*	*	*	*	*ij	*	*ij	*	*ij	*	*ij
8D/L	.	8a/L	8a/L	8D/	fla-	8A/	fla-	8f\	fla-	8dd\	fla-
8C#X/J	X 6	8a/J	8a/J	8C#X,/	-bit	8A/	-bit	8a\	-bit	8ee\	-bit
*	*	*	*	*	*Xij	*	*Xij	*	*Xij	*	*Xij
!	!	!	!LO:LB:g=original	!	!	!	!	!	!	!	!
=89	=89	=89	=89	=89	=89	=89	=89	=89	=89	=89	=89
!LO:TX:a:t=P:problem=mixed beam	!	!	!	!	!	!	!	!	!	!	!
!	!	!	!	!LO:N:vis=4	!	!	!	!	!	!	!
8D\L	.	8dd\L	8dd\L	8D/	ſpi-	8A/	ſpi-	8f\	ſpi-	8ff\	ſpi-
!	!	!	!	!	!	!	!	!LO:N:vis=8	!	!	!
8G\	X 6	16ee\L	16ee\L	16G\	-ri-	16B-X\	-ri-	16g\	-ri-	16ee\	-ri-
.	.	16ff\JJ	16ff\JJ	16G\	-tus	16B-\	-tus	16f\	-tus	16dd\	-tu(s)
!	!	!	!	!LO:TX:a:t=P:problem=mixed beam	!	!	!	!	!	!	!
8A\	.	8a/L	8a/L	8A\L	e-	4A/	e-	4e\	e-	4cc#X\	eius
8AA/J	.	8cc#X/J	8cc#X/J	8AA/J	.	.	.	.	.	.	.
=90	=90	=90	=90	=90	=90	=90	=90	=90	=90	=90	=90
8D\L	.	8dd\L	8dd\L	8D,/	-ius	8A/	-ius	8d\	-ius	8dd,\	.
!	!	!	!	!	!	!LO:PB:g=original	!	!	!	!	!
8E\	X 6	8ccn\	8ccn\	8E\	et	8c\	et	8g\	et	8ccn\	et
8F\	.	8cc\	8cc\	8F\	flu-	8A/	flu-	8f\	flu-	8cc\	flu-
8E\J	X 6	8cc\J	8cc\J	8E\	-ent	8c\	-ent	8g\	-ent	8cc\	-ent
=91	=91	=91	=91	=91	=91	=91	=91	=91	=91	=91	=91
!LO:TX:a:t=P:problem=mixed beam	!	!LO:TX:a:t=P:problem=mixed beam	!LO:TX:a:t=P:problem=mixed beam	!	!	!	!	!	!	!	!
8F\L	.	8cc\L	8cc\L	8F\	a-	8c\	a-	8a\	a-	8a\	a-
8FF/J	.	8c/	8c/	8FF/	-quae	8c\	-quae	8a\	-quae	8f/	-quae
4r	.	8c/	8c/	4r	.	4r	.	8r	.	8r	.
.	.	8c/J	8c/J	.	.	.	.	16e\LL	et	16g\LL	et
.	.	.	.	.	.	.	.	16f\JJ	.	16a\JJ	.
=92	=92	=92	=92	=92	=92	=92	=92	=92	=92	=92	=92
2r	.	8c/L	8c/L	2r	.	2r	.	16g\LL	flu-	16b-X\LL	flu-
.	.	.	.	.	.	.	.	16f\	.	16a\	.
.	.	8c/	8c/	.	.	.	.	16e\	.	16g\	.
.	.	.	.	.	.	.	.	16f\JJ	.	16a\JJ	.
.	.	8c/	8c/	.	.	.	.	16g\LL	.	16b-X\LL	.
.	.	.	.	.	.	.	.	16f\	.	16a\	.
.	.	8c/J	8c/J	.	.	.	.	16e\	.	16g\	.
.	.	.	.	.	.	.	.	16f\JJ	.	16a\JJ	.
=93	=93	=93	=93	=93	=93	=93	=93	=93	=93	=93	=93
4C/	X 7-	8c/L	8c/L	8C/	Flu-	8e\	Flu-	8g\L	.	8b-X\	-ent
.	.	8c/	8c/	8C/	-ent	8e\	-ent	8g\J	-ent	8b-\	.
4r	.	8c/	8c/	4r	.	4r	.	8r	.	8r	.
.	.	8c/J	8c/J	.	.	.	.	16e\LL	et	16g\LL	et
.	.	.	.	.	.	.	.	16f\JJ	.	16a\JJ	.
!	!	!	!	!LO:LB:g=original	!	!	!	!LO:LB:g=original	!	!LO:LB:g=original	!
=94	=94	=94	=94	=94	=94	=94	=94	=94	=94	=94	=94
2r	.	8c/L	8c/L	2r	.	2r	.	16g\LL	flu-	16b-X\LL	flu-
.	.	.	.	.	.	.	.	16f\	.	16a\	.
.	.	8c/	8c/	.	.	.	.	16e\	.	16g\	.
.	.	.	.	.	.	.	.	16f\JJ	.	16a\JJ	.
.	.	8c/	8c/	.	.	.	.	16g\LL	.	16b-X\LL	.
.	.	.	.	.	.	.	.	16f\	.	16a\	.
.	.	8c/J	8c/J	.	.	.	.	16e\	.	16g\	.
.	.	.	.	.	.	.	.	16f\JJ	.	16a\JJ	.
=95-	=95-	=95	=95	=95	=95	=95	=95	=95	=95	=95	=95
!	!	!LO:TX:a:t=P:problem=mixed beam	!LO:TX:a:t=P:problem=mixed beam	!	!	!	!	!	!	!	!
4C/	X 7-	8c/L	8c/L	8C/	flu-	8e\	flu-	8g\	.	8b-X\	-ent
.	.	8cc\	8cc\	8C/	-ent	8e\	-ent	8g\	-ent	8b-\	.
8r	.	8cc\	8cc\	8r	.	8r	.	8r	.	8r	.
8E\	X 6	8cc\J	8cc\J	8E\	et	8c\	et	8g\	et	8cc\	et
!LO:LB:g=original	!	!	!	!	!	!	!	!	!	!	!
=96	=96	=96	=96	=96	=96	=96	=96	=96	=96	=96	=96
!LO:TX:a:t=P:problem=mixed beam	!	!	!	!	!	!	!	!	!	!	!
8F\L	.	8a\L	8a\L	8F\	flu-	8A/	flu-	8f\	flu-	8cc\	flu-
8BB-X\	X 6	16dd\L	16dd\L	8BB-X/	-ent	8d\	-ent	8g\	-ent	(>16dd\LL	-ent
.	.	16g\JJ	16g\JJ	.	.	.	.	.	.	16g\JJ)	.
!	!	!	!LO:TX:a:t=P:problem=mixed beam	!	!	!	!	!	!	!	!
8C\	.	8g\L	8f/L	4C/	a-	4c\	a-	4e\	a-	4g\	a-
8CC/J	.	8cc\J	8cc\J	.	.	.	.	.	.	.	.
=97	=97	=97	=97	=97	=97	=97	=97	=97	=97	=97	=97
4FF/	.	8g/	8a/	8FF/	-quae	4c\	-quae	8f,\	-quae	8a,\	-quae
.	.	8r	8r	8r	.	.	.	16f\	qui	16a\	qui-
.	.	.	.	.	.	.	.	16f\	a-	16a\	-a
8r	.	4r	4r	4r	.	4r	.	8f\	-nun-	8a\	nun-
!LO:TX:i:b:t=Solo	!	!	!	!	!	!	!	!	!	!	!
8F\	.	.	.	.	.	.	.	16g\	-ci-	16b-X\	-ci-
.	.	.	.	.	.	.	.	16a\	-at	16cc\	-at
!	!	!LO:LB:g=original	!	!	!	!	!	!	!	!	!
=98	=98	=98	=98	=98	=98	=98	=98	=98	=98	=98	=98
!	!	!LO:N:vis=00	!LO:N:vis=00	!LO:N:vis=00	!	!LO:N:vis=00	!	!	!	!	!
4G\	X -	0r	0r	0r	.	0r	.	8g\	Ver-	8b-X\	Ver-
.	.	.	.	.	.	.	.	(>16f\LL	-bu(m)	(>16a\LL	-bu(m)
.	.	.	.	.	.	.	.	16g\JJ)	.	16b-\JJ)	.
8r	.	.	.	.	.	.	.	(>16e\LL	ſu-	(>16g\LL	ſu-
.	.	.	.	.	.	.	.	16f\JJ)	.	16a\JJ)	.
8C/	.	.	.	.	.	.	.	(>16g\LL	-um	16b-X\LL	-um
.	.	.	.	.	.	.	.	16a\JJ)	.	16cc\JJ	.
=99	=99	=99	=99	=99	=99	=99	=99	=99	=99	=99	=99
4F\	.	.	.	.	.	.	.	8f\	Ja-	8a\	Ja-
.	.	.	.	.	.	.	.	16f\	-cob	8a\	-cob
.	.	.	.	.	.	.	.	16f\	Ju-	.	.
!	!	!	!	!	!	!	!	!LO:LB:g=original	!	!	!
8r	.	.	.	.	.	.	.	8f\	-sti-	8r	.
8AA/	X 6	.	.	.	.	.	.	16f\	-ti-	8ff\	Ju-
.	.	.	.	.	.	.	.	16f\	-as	.	.
=100	=100	=100	=100	=100	=100	=100	=100	=100	=100	=100	=100
4BB-X/	.	.	.	.	.	.	.	8r	.	8dd\	-ſti-
.	.	.	.	.	.	.	.	16f\	et	8dd\	-ci-
.	.	.	.	.	.	.	.	16f\	Ju-	.	.
!	!	!	!	!	!	!	!	!	!	!LO:LB:g=original	!
8r	.	.	.	.	.	.	.	8f\	-di-	8cc,\	-as
8GG/	X 6	.	.	.	.	.	.	16f\	-ci-	16ff\	et
.	.	.	.	.	.	.	.	16f\	-a	16ff\	iu-
=101	=101	=101	=101	=101	=101	=101	=101	=101	=101	=101	=101
8BB-X/L	.	.	.	.	.	.	.	8r	.	4.dd\	-di-
8GG/J	X 6	.	.	.	.	.	.	8f\	Ju-	.	.
8BB-/L	.	.	.	.	.	.	.	8f\	-di-	.	.
8GG/J	X -	.	.	.	.	.	.	16g\	-ci-	16b-X\	-ci-
.	.	.	.	.	.	.	.	16f\	-a	16a\	-a
=102	=102	=102	=102	=102	=102	=102	=102	=102	=102	=102	=102
!	!	!LO:N:vis=00	!LO:N:vis=00	!	!	!LO:N:vis=0	!	!	!	!	!
8C/L	.	0r	0r	2r	.	1r	.	8e\	ſu-	8g\	ſu-
8FF/	.	.	.	.	.	.	.	16f\LL	-a	16a\	-a
.	.	.	.	.	.	.	.	16g\JJ	.	16b-X\	.
8C/	.	.	.	.	.	.	.	8.e\	I-	8.g\	Is-
8CC/J	.	.	.	.	.	.	.	.	.	.	.
.	.	.	.	.	.	.	.	16e\	-ſra-	16g\Jk	-ra-
=103	=103	=103	=103	=103	=103	=103	=103	=103	=103	=103	=103
!LO:TX:a:t=P:problem=mixed beam	!	!	!	!	!	!	!	!	!	!	!
8FF/L	.	.	.	8r	.	.	.	8f\	-el	8a\	-el
8F\	.	.	.	8F\	Non	.	.	8r	.	8r	.
8E\	.	.	.	8E\	fe-	.	.	4r	.	4r	.
8D\J	.	.	.	8D/	-cit	.	.	.	.	.	.
=104	=104	=104	=104	=104	=104	=104	=104	=104	=104	=104	=104
!LO:TX:a:t=P:problem=mixed beam	!	!	!	!	!	!	!	!	!	!	!
!	!	!	!	!	!	!	!	!LO:N:vis=00	!	!LO:N:vis=00	!
8C/L	.	.	.	8C/	ta-	8r	.	0r	.	0r	.
8c\	.	.	.	16C/	-li-	8e\	non	.	.	.	.
.	.	.	.	16C/	-ter	.	.	.	.	.	.
8B\	.	.	.	4r	.	8d\	fe-	.	.	.	.
8A\J	.	.	.	.	.	8c\	-cit	.	.	.	.
!	!	!	!	!	!	!LO:LB:g=original	!	!	!	!	!
=105	=105	=105	=105	=105	=105	=105	=105	=105	=105	=105	=105
8G\L	.	.	.	(>8G\L	o-	8B\	ta-	.	.	.	.
8F\	.	.	.	8F\J)	.	16B\	-li-	.	.	.	.
.	.	.	.	.	.	16B\	-ter	.	.	.	.
8E\	X 6	.	.	(>8E\L	-mni	8c\	o-	.	.	.	.
8F\J	X 6	.	.	8F\J)	.	(>16d\LL	-mni	.	.	.	.
.	.	.	.	.	.	16A\JJ)	.	.	.	.	.
!LO:LB:g=original	!	!	!	!	!	!	!	!	!	!	!
=106	=106	=106	=106	=106	=106	=106	=106	=106	=106	=106	=106
!	!	!LO:N:vis=00	!LO:N:vis=00	!	!	!	!	!	!	!	!
8G\L	.	0r	0r	8G\	na-	8B\	na-	.	.	.	.
8C\J	.	.	.	8C/	-ti-	(>16c\LL	-ti-	.	.	.	.
.	.	.	.	.	.	16d\JJ)	.	.	.	.	.
!LO:TX:a:t=P:problem=mixed beam	!	!	!	!LO:TX:a:t=P:problem=mixed beam	!	!	!	!	!	!	!
!	!	!	!	!LO:LB:g=original	!	!	!	!	!	!	!
8G\L	.	.	.	8G\L	-o-	4B\	-o-	.	.	.	.
8GG/J	.	.	.	8GG/J	.	.	.	.	.	.	.
=107	=107	=107	=107	=107	=107	=107	=107	=107	=107	=107	=107
!LO:TX:a:t=P:problem=mixed beam	!	!	!	!	!	!	!	!	!	!	!
8C/L	.	.	.	8C,/	-ni	8c\	-ni	.	.	.	.
16c\L	.	.	.	16c\	et	8r	.	.	.	.	.
16B\JJ	.	.	.	16B\	Ju-	.	.	.	.	.	.
8c\L	.	.	.	8c\	-di-	4r	.	.	.	.	.
8G\J	.	.	.	16G\	-ci-	.	.	.	.	.	.
.	.	.	.	16G\	-a	.	.	.	.	.	.
=108	=108	=108	=108	=108	=108	=108	=108	=108	=108	=108	=108
!	!	!	!	!	!	!	!	!LO:N:vis=00	!	!LO:N:vis=00	!
8A\L	.	.	.	8A\	ſu-	8r	.	0r	.	0r	.
16A\L	.	.	.	8A\	-a	16c\	et	.	.	.	.
16G\JJ	.	.	.	.	.	16B\	Ju-	.	.	.	.
8A\L	.	.	.	8r	.	8c\	-di-	.	.	.	.
8E\J	X 6	.	.	8E\	non	16G/	-ci-	.	.	.	.
.	.	.	.	.	.	16G/	-a	.	.	.	.
=109	=109	=109	=109	=109	=109	=109	=109	=109	=109	=109	=109
*	*	*	*	*	*ij	*	*	*	*	*	*
8F\L	.	.	.	4F\	non	4A/	ſua	.	.	.	.
*	*	*	*	*	*Xij	*	*	*	*	*	*
16F\L	.	.	.	.	.	.	.	.	.	.	.
16E\JJ	X 6	.	.	.	.	.	.	.	.	.	.
8F\L	.	.	.	8r	.	8A,/	.	.	.	.	.
8E\J	X 6	.	.	8E\	non	8c\	non	.	.	.	.
=110	=110	=110	=110	=110	=110	=110	=110	=110	=110	=110	=110
*	*	*	*	*	*ij	*	*	*	*	*	*
!	!	!LO:N:vis=0	!LO:N:vis=0	!	!	!	!	!	!	!	!
8F\L	.	1r	1r	8F\	non	8c\	non	.	.	.	.
*	*	*	*	*	*Xij	*	*	*	*	*	*
8G\	.	.	.	8G\	Ma-	8c\	ma-	.	.	.	.
8A\	.	.	.	8A\	-ni-	8c\	-ni-	.	.	.	.
!	!	!	!	!	!	!LO:LB:g=original	!	!	!	!	!
8E\J	X 6	.	.	8E\	-fe-	8c\	-fe-	.	.	.	.
=111	=111	=111	=111	=111	=111	=111	=111	=111	=111	=111	=111
!LO:TX:a:t=P:problem=mixed beam	!	!	!	!	!	!	!	!	!	!	!
8F\L	.	.	.	8F\	-sta-	8c\	-st(a)-	.	.	.	.
8D\	.	.	.	8D/	-vit	(>16d\LL	-vit	.	.	.	.
.	.	.	.	.	.	16A\JJ)	.	.	.	.	.
!	!	!	!	!LO:TX:a:t=P:problem=mixed beam	!	!	!	!	!	!	!
8G\	.	.	.	8G\L	e-	4B\	e-	.	.	.	.
8GG/J	.	.	.	8GG/J	.	.	.	.	.	.	.
=112	=112	=112-	=112	=112	=112	=112	=112	=112-	=112	=112-	=112
!LO:TX:i:b:t=Tut	!	!	!	!	!	!	!	!	!	!	!
4C/	.	4r	4r	4C,/	-is	4c,\	-is	4r	.	4r	.
8c\L	.	8ee\L	8ee\L	8c\	Glo-	8c\	Glo-	8g\	Glo-	8ee\	Glo-
!	!	!	!	!LO:LB:g=original	!	!	!	!	!	!LO:TX:a:t=d	!
8G\J	.	8gg\J	8gg\J	16G\	-ri-	16B\	-ri-	16g\	-ri-	16dd\	-ria
!	!	!	!	!	!	!	!	!	!	!LO:TX:a:t=d	!
.	.	.	.	16G\	-a	16B\	-a	16g\	-a	16dd\	.
!	!	!	!LO:LB:g=original	!	!	!	!	!LO:LB:g=original	!	!	!
=113	=113	=113	=113	=113	=113	=113	=113	=113	=113	=113	=113
!	!	!	!	!	!	!LO:TX:a:t=cla	!	!	!	!	!
8A\L	.	16cc\LL	16cc\LL	8A\	Pa-	8c\	Pa-	8e\	Pa-	8cc\	Pa-
.	.	16cc\	16cc\	.	.	.	.	.	.	.	.
8E\	X 6	16cc\	16cc\	16E\	-tri	16c\	-tri	16g\	-tri	16cc\	-tri
.	.	16cc\JJ	16cc\JJ	16E\	et	16c\	et	16g\	et	16cc\	et
8F\	.	16cc\LL	16cc\LL	8F\	fi-	8c\	fi-	8a\	fi-	8ff\	fi-
.	.	16dd\	16dd\	.	.	.	.	.	.	.	.
8D\J	.	16ee\	16ee\	8C/	-li-	8c\	-li-	8g\	-li-	8ee\	-li-
.	.	16ff\JJ	16ff\JJ	.	.	.	.	.	.	.	.
=114	=114	=114	=114	=114	=114	=114	=114	=114	=114	=114	=114
4G\	.	16dd\LL	16dd\LL	4G,\	-o	4B,\	-o	4g,\	-o	4dd\	-o
.	.	16gg\	16gg\	.	.	.	.	.	.	.	.
.	.	16gg\	16gg\	.	.	.	.	.	.	.	.
.	.	16gg\JJ	16gg\JJ	.	.	.	.	.	.	.	.
8A\L	X 6	16ff\LL	16ff\LL	8A\	et	8c\	et	8f\	et	8cc\	et
.	.	16ee\	16ee\	.	.	.	.	.	.	.	.
8B\J	6 5	16ff\	16ff\	8B\	ſpi-	8G/	ſpi-	8f\	ſpi-	8dd\	ſpi-
.	.	16gg\JJ	16gg\JJ	.	.	.	.	.	.	.	.
!	!	!	!	!	!	!	!	!	!	!LO:LB:g=original	!
=115	=115	=115	=115	=115	=115	=115	=115	=115	=115	=115	=115
8c\L	.	8ee\L	8ee\L	8c\	-ri-	8c\	-ri-	8e\	-ri-	8ee\	-ri-
!	!	!	!	!	!	!	!	!LO:TX:a:t=a	!	!	!
8F\J	.	8aa\	8aa\	16F\	-tu-	16d\	-tui	16a\	-tui	16ff\	-tu-
!LO:LB:g=original	!	!	!	!	!	!	!	!LO:TX:a:t=a	!	!	!
.	.	.	.	16F\	-i	16c\	.	16a\	.	16ee\	-i
!LO:TX:a:t=P:problem=mixed beam	!	!	!	!LO:TX:a:t=P:problem=mixed beam	!	!	!	!	!	!	!
8G\L	.	8dd\	8dd\	8G\L	ſan-	4B\	ſan-	4g\	ſan-	4dd\	ſan-
8GG/J	.	8gg\J	8gg\J	8GG/J	.	.	.	.	.	.	.
=116	=116	=116	=116	=116	=116	=116	=116	=116	=116	=116	=116
4C/	.	8ee\L	8ee\L	4C/	-cto	4c\	-cto	4g\	-cto	8cc,\	-cto
.	.	16cc\L	16cc\L	.	.	.	.	.	.	16cc\	ſi-
.	.	16b-X\JJ	16b-X\JJ	.	.	.	.	.	.	16b-X\	-cut
!	!	!	!	!	!	!LO:LB:g=original	!	!	!	!	!
8r	.	8a/L	8a/L	8r	.	8r	.	8r	.	8a\	e-
8E\	X 6	8f/J	8f/J	16E\	ſi-	16c\	ſi-	16g\LL	ſi-	8g/	-rat
.	.	.	.	16E\	-cut	16B-X\	-cut	16g\JJ	-cut	.	.
=117	=117	=117	=117	=117	=117	=117	=117	=117	=117	=117	=117
8F\L	.	8r	8r	8F\	e-	8A/	e-	8f\L	e-	8r	.
8C\J	.	16cc\LL	16cc\LL	8C/	-rat	8G/	-rat	8e\J	-rat	16cc\	in
.	.	16b\JJ	16b\JJ	.	.	.	.	.	.	16b-X\	prin-
8r	.	8a/L	8a/L	8r	.	8r	.	8r	.	16a\	-ci-
.	.	.	.	.	.	.	.	.	.	16a\	-pi-
!	!	!	!	!	!	!LO:N:vis=8	!	!	!	!	!
8E\	X 6	8g/J	8g/J	16E\	in	16c\	in	16g\	in	8g/	-o
.	.	.	.	16E\	prin-	16B-X\	prin-	16g\	prin-	.	.
!	!	!	!	!LO:LB:g=original	!	!	!	!	!	!	!
=118	=118	=118	=118	=118	=118	=118	=118	=118	=118	=118	=118
8F\L	.	8r	8r	16F\	-ci-	16A/	-ci-	16f\	-ci-	8r	.
.	.	.	.	16F\	-pi-	16A/	-pio	16f\	-pi-	.	.
8C\J	.	16gg\LL	16gg\LL	8C/	-o	8G/	.	8e\	-o	16gg\	ſi-
.	.	16ff\JJ	16ff\JJ	.	.	.	.	.	.	16ff\	-cut
8r	.	8ee\L	8ee\L	8r	.	8r	.	8r	.	8ee\	e-
8BB/	.	8dd\J	8dd\J	16BB/	ſi-	16G/	ſi-	16g\	ſi-	8dd\	-rat
.	.	.	.	16BB/	-cut	16G/	-cut	16f\	-cut	.	.
!	!	!	!	!	!	!	!	!LO:PB:g=original	!	!	!
=119	=119	=119	=119	=119	=119	=119	=119	=119	=119	=119	=119
8C/L	.	8r	8r	8C/	e-	8c\	e-	8e\	e-	8r	.
8GG/J	.	16gg\LL	16gg\LL	8GG/	-rat	8A/	-rat	8d\	-rat	16gg\	in
.	.	16ff\JJ	16ff\JJ	.	.	.	.	.	.	16ff\	prin-
8r	.	8ee\L	8ee\L	8r	.	8r	.	8r	.	16ee\	-ci-
.	.	.	.	.	.	.	.	.	.	16dd\	-pi-
8BB/	.	8dd\J	8dd\J	16BB/	in	16d\	in	16g\	in	8dd\	-o
.	.	.	.	16BB/	prin-	16d\	prin-	16f\	prin-	.	.
!	!	!LO:LB:g=original	!	!	!	!	!	!	!	!LO:PB:g=original	!
=120	=120	=120	=120	=120	=120	=120	=120	=120	=120	=120	=120
8C/L	.	8r	8r	16C/	-ci-	16c\	-ci-	16e\	-ci-	8r	.
.	.	.	.	16C/	-pi-	16c\	-pi-	16e\	-pi-	.	.
8GG/J	.	16gg\LL	16gg\LL	8GG/	-o	8B\	-o	8d\	-o	16gg\LL	et
.	.	16ff\JJ	16ff\JJ	.	.	.	.	.	.	16ff\JJ	.
8r	.	16ee\LL	16ee\LL	8r	.	8r	.	8r	.	8ee\	nunc
.	.	16dd\	16dd\	.	.	.	.	.	.	.	.
8C/	.	16ee\	16ee\	8C/	et	8c\	et	8g\	et	8ee\	et
.	.	16cc\JJ	16cc\JJ	.	.	.	.	.	.	.	.
!	!	!	!LO:LB:g=original	!	!	!LO:LB:g=original	!	!	!	!	!
=121	=121	=121	=121	=121	=121	=121	=121	=121	=121	=121	=121
!	!	!LO:TX:a:t=P:problem=mixed beam	!LO:TX:a:t=P:problem=mixed beam	!	!	!	!	!	!	!	!
4GG/	.	8dd\L	8dd\L	4GG/	nunc	4B\	nunc	4g\	nunc	4dd\	nunc
.	.	8g/J	8g/J	.	.	.	.	.	.	.	.
4r	.	8r	8r	4r	.	8r	.	4r	.	8r	.
.	.	8G/	8G/	.	.	16B\LL	et	.	.	(>16dd\LL	et
.	.	.	.	.	.	16c\JJ	.	.	.	16ee\JJ)	.
=122	=122	=122	=122	=122	=122	=122	=122	=122	=122	=122	=122
2r	.	8G/L	8G/L	4r	.	16d\LL	ſem-	4r	.	16ff\LL	ſem-
.	.	.	.	.	.	16c\	.	.	.	16ee\	.
.	.	8G/	8G/	.	.	16B\	.	.	.	16dd\	.
.	.	.	.	.	.	16c\JJ	.	.	.	16ee\JJ	.
.	.	8G/	8G/	8r	.	16d\LL	.	8r	.	16ff\LL	.
.	.	.	.	.	.	16c\	.	.	.	16ee\	.
.	.	8G/J	8G/J	8G\	et	16B\	.	8B/	et	16dd\	.
.	.	.	.	.	.	16c\JJ	.	.	.	16ee\JJ	.
=123	=123	=123	=123	=123	=123	=123	=123	=123	=123	=123	=123
4GG/	X 7	8G/L	8G/L	8G\	ſem-	8d\	.	8B/	ſem-	8ff\	.
.	.	8G/	8G/	8GG/	-per	8d\	-per	8B/	-per	8ff\	-per
4r	.	8G/	8G/	4r	.	8r	.	4r	.	8r	.
.	.	8G/J	8G/J	.	.	16B\	et	.	.	16dd\	et
.	.	.	.	.	.	16c\	in	.	.	16ee\	in
=124	=124	=124	=124	=124	=124	=124	=124	=124	=124	=124	=124
2r	.	8G/L	8G/L	4r	.	16d\LL	ſae-	4r	.	16ff\LL	ſae-
.	.	.	.	.	.	16c\	.	.	.	16ee\	.
.	.	8G/	8G/	.	.	16B\	.	.	.	16dd\	.
.	.	.	.	.	.	16c\JJ	.	.	.	16ee\JJ	.
!	!	!	!	!LO:LB:g=original	!	!	!	!	!	!	!
.	.	8G/	8G/	8r	.	16d\LL	.	8r	.	16ff\LL	.
.	.	.	.	.	.	16c\	.	.	.	16ee\	.
.	.	8G/J	8G/J	16G\LL	Et	16B\	.	16B/	et-	16dd\	.
.	.	.	.	16G\JJ	in	16c\JJ	.	16B/	-in	16ee\JJ	.
=125	=125	=125	=125	=125	=125	=125	=125	=125	=125	=125	=125
4GG/	.	4G/	4G/	8G\	ſae-	8d\	.	8B/	ſae-	8ff\	.
.	.	.	.	16GG,/	-cu-	16d\	-cu-	16B/	-cu-	16ff\	-cu-
.	.	.	.	16GG/	-la	16d\	-la	16B/	-la	16ff\	-la
!	!	!	!	!	!	!	!	!	!	!LO:LB:g=original	!
8c\L|	.	4r	4r	8c\	Et	4r	.	4r	.	4r	.
8B\J|	.	.	.	8B\	in	.	.	.	.	.	.
=126	=126	=126	=126	=126	=126	=126	=126	=126	=126	=126	=126
!LO:TX:a:t=P:problem=mixed beam	!	!	!	!	!	!	!	!	!	!	!
8A\L|	.	4r	4r	8A\	ſae-	4r	.	4r	.	4r	.
8AA/J|	.	.	.	16AA/	-cu-	.	.	.	.	.	.
.	.	.	.	16AA,/	-la	.	.	.	.	.	.
8A\L	X 5	8ff\L	8ff\L	8A\	Et	8c\	et	8f\	et	8ff\	et
!	!	!	!	!	!	!	!	!LO:LB:g=original	!	!	!
8G\J	X 6	8ee\J	8ee\J	8G\	in	8e\	in	8g\	in	8ee\	in
!LO:LB:g=original	!	!	!	!	!	!	!	!	!	!	!
=127	=127	=127	=127	=127	=127	=127	=127	=127	=127	=127	=127
8F\L	X 6	8dd\L	8dd\L	8F\	ſae-	8A/	ſae-	8a\	ſae-	8dd\	ſae-
8E\	X 6	8cc\	8cc\	16E\	-cu-	16c\	-cu-	16g\	-cu-	16cc\	-cula
.	.	.	.	16E\	-la	16c\	-la	16g\	-la	16cc\	.
8D\	X 6	8b\	8b\	8D/	ſae-	8d\	ſae-	8f\	ſae-	8b\	ſae-
!	!	!	!	!	!	!LO:LB:g=original	!	!	!	!	!
8C\J	.	8cc\J	8cc\J	8C/	-cu-	8G/	-cu-	8e\	-cu-	8cc\	-cu-
=128	=128	=128	=128	=128	=128	=128	=128	=128	=128	=128	=128
!LO:TX:a:t=P:problem=mixed beam	!	!	!	!	!	!	!	!	!	!	!
8G\L	.	8dd\L	8dd\L	8G\	-lo-	8B\	-lo-	8g\	-lo-	8dd\	-lo-
8C/J	.	8ee\	8ee\	8c\	-ru(m)	(>16c\LL	-rum	8g\	-rum	(>16ee\LL	-rum
.	.	.	.	.	.	16d\JJ)	.	.	.	16ff\JJ)	.
!LO:TX:a:t=P:problem=mixed beam	!	!	!	!	!	!	!	!	!	!	!
8G\L	.	8dd\	8dd\	4G\	A-	4B\	A-	4g\	A-	4dd\	A-
8GG/J	.	8gg\J	8gg\J	.	.	.	.	.	.	.	.
=129	=129	=129	=129	=129	=129	=129	=129	=129	=129	=129	=129
4C/	.	4ee\	4ee\	4C/	-men	4c\	-men	4g\	-men	4cc\	-men
4r	.	4r	4r	4r	.	4r	.	4r	.	4r	.
=||;;	=||;;	=||;;	=||;;	=||	=||	=||;;	=||;;	=||;;	=||;;	=||;;	=||;;
*-	*-	*-	*-	*-	*-	*-	*-	*-	*-	*-	*-
!!!system-decoration: [g1][g2]s7
!!!RDF**kern: > = above
!!!RDF**kern: < = below
!!!RDF**kern: | = vertical stroke
!!!EED: Antoni Szymański
!!!EEV: 2020-11-02
!!!ENC: Andrzej Gręziak
!!!END: 2020-06-09
!!!YEC: Copyright 2022 Narodowy Instytut Fryderyka Chopina (https://polishscores.org)
!!!YEM: License CC-BY-4.0 (https://creativecommons.org/licenses/by/4.0)
